; G-Code generated by Simplify3D(R) Version 4.0.1
; Aug 17, 2018 at 10:21:24 PM
; Settings Summary
;   processName,Process1
;   applyToModels,Bed_Level_Test
;   profileName,Ender 3 (modified)
;   profileVersion,2018-08-17 22:18:50
;   baseProfile,Wanhao Duplicator i3 (modified)
;   printMaterial,PLA
;   printQuality,Medium
;   printExtruders,
;   extruderName,Primary Extruder
;   extruderToolheadNumber,0
;   extruderDiameter,0.4
;   extruderAutoWidth,0
;   extruderWidth,0.4
;   extrusionMultiplier,0.97
;   extruderUseRetract,1
;   extruderRetractionDistance,4
;   extruderExtraRestartDistance,0
;   extruderRetractionZLift,0
;   extruderRetractionSpeed,3900
;   extruderUseCoasting,0
;   extruderCoastingDistance,0.1
;   extruderUseWipe,1
;   extruderWipeDistance,4
;   primaryExtruder,0
;   layerHeight,0.2
;   topSolidLayers,3
;   bottomSolidLayers,3
;   perimeterOutlines,3
;   printPerimetersInsideOut,1
;   startPointOption,3
;   startPointOriginX,220
;   startPointOriginY,0
;   sequentialIslands,0
;   spiralVaseMode,0
;   firstLayerHeightPercentage,80
;   firstLayerWidthPercentage,100
;   firstLayerUnderspeed,0.3
;   useRaft,0
;   raftExtruder,0
;   raftTopLayers,3
;   raftBaseLayers,2
;   raftOffset,3
;   raftSeparationDistance,0.14
;   raftTopInfill,100
;   aboveRaftSpeedMultiplier,0.3
;   useSkirt,1
;   skirtExtruder,0
;   skirtLayers,1
;   skirtOutlines,3
;   skirtOffset,3
;   usePrimePillar,0
;   primePillarExtruder,999
;   primePillarWidth,12
;   primePillarLocation,7
;   primePillarSpeedMultiplier,1
;   useOozeShield,0
;   oozeShieldExtruder,999
;   oozeShieldOffset,2
;   oozeShieldOutlines,1
;   oozeShieldSidewallShape,1
;   oozeShieldSidewallAngle,30
;   oozeShieldSpeedMultiplier,1
;   infillExtruder,0
;   internalInfillPattern,Grid
;   externalInfillPattern,Rectilinear
;   infillPercentage,25
;   outlineOverlapPercentage,15
;   infillExtrusionWidthPercentage,100
;   minInfillLength,5
;   infillLayerInterval,1
;   internalInfillAngles,45,-45
;   overlapInternalInfillAngles,1
;   externalInfillAngles,45,-45
;   generateSupport,0
;   supportExtruder,0
;   supportInfillPercentage,30
;   supportExtraInflation,1
;   supportBaseLayers,0
;   denseSupportExtruder,0
;   denseSupportLayers,0
;   denseSupportInfillPercentage,100
;   supportLayerInterval,1
;   supportHorizontalPartOffset,0.3
;   supportUpperSeparationLayers,1
;   supportLowerSeparationLayers,1
;   supportType,1
;   supportGridSpacing,99
;   maxOverhangAngle,50
;   supportAngles,0,45
;   temperatureName,Primary Extruder,Heated Bed
;   temperatureNumber,0,0
;   temperatureSetpointCount,2,1
;   temperatureSetpointLayers,1,2,1
;   temperatureSetpointTemperatures,220,205,60
;   temperatureStabilizeAtStartup,1,1
;   temperatureHeatedBed,0,1
;   temperatureRelayBetweenLayers,0,0
;   temperatureRelayBetweenLoops,0,0
;   fanLayers,1,2
;   fanSpeeds,0,100
;   blipFanToFullPower,0
;   adjustSpeedForCooling,1
;   minSpeedLayerTime,15
;   minCoolingSpeedSlowdown,50
;   increaseFanForCooling,0
;   minFanLayerTime,20
;   maxCoolingFanSpeed,100
;   increaseFanForBridging,0
;   bridgingFanSpeed,100
;   use5D,1
;   relativeEdistances,0
;   allowEaxisZeroing,1
;   independentExtruderAxes,0
;   includeM10123,0
;   stickySupport,1
;   applyToolheadOffsets,0
;   gcodeXoffset,0
;   gcodeYoffset,0
;   gcodeZoffset,0
;   overrideMachineDefinition,1
;   machineTypeOverride,0
;   strokeXoverride,220
;   strokeYoverride,220
;   strokeZoverride,250
;   originOffsetXoverride,0
;   originOffsetYoverride,0
;   originOffsetZoverride,0
;   homeXdirOverride,-1
;   homeYdirOverride,-1
;   homeZdirOverride,-1
;   flipXoverride,1
;   flipYoverride,-1
;   flipZoverride,1
;   toolheadOffsets,0,0|0,0|0,0|0,0|0,0|0,0
;   overrideFirmwareConfiguration,1
;   firmwareTypeOverride,RepRap (Marlin/Repetier/Sprinter)
;   GPXconfigOverride,r2
;   baudRateOverride,115200
;   overridePrinterModels,1
;   printerModelsOverride
;   startingGcode,M75 ; Start Print Timer and Engage Fil Sensor ,M84 E ; Disable E Motor for probe accuracy on direct drive systems ,G28 ; home all axes ,G28 Z ; home Z to get more accurate Z position ,G29; EZABL mesh generation ,G4 S10; wait for heaters to recover , ,M117 Purge extruder ,G92 E0 ; reset extruder ,G1 Z1.0 F3000 ; move z up little ,G1 X0.1 Y20 Z0.3 F5000.0 ; move to start-line position,G1 X0.1 Y100.0 Z0.3 F1000.0 E15 ; draw 1st line ,G1 X0.4 Y100.0 Z0.3 F5000.0 ; move to side a little,G1 X0.4 Y20 Z0.3 F1000.0 E30 ; draw 2nd line ,G92 E0 ; reset extruder ,G1 Z1.0 F3000 ; move z up little , ,M117 Printing..... ,
;   layerChangeGcode,
;   retractionGcode,
;   toolChangeGcode,
;   endingGcode,G1 Y200 X0,M104 S0 ; turn off extruder,M140 S0 ; turn off bed,M106 S0 ; turn off fan,M84 ; disable motors
;   exportFileFormat,gcode
;   celebration,0
;   celebrationSong,Star Wars
;   postProcessing,curl -k -H "X-Api-Key: 1DC09949E057451CA27DA30E29CCEC3B" -F "select=false" -F "print=false" -F "file=@[output_filepath]" "http://192.168.1.94/api/files/local" {STRIP "; postProcessing"}
;   defaultSpeed,3000
;   outlineUnderspeed,0.8
;   solidInfillUnderspeed,0.8
;   supportUnderspeed,0.5
;   rapidXYspeed,6000
;   rapidZspeed,1920
;   minBridgingArea,25
;   bridgingExtraInflation,0
;   bridgingExtrusionMultiplier,1.2
;   bridgingSpeedMultiplier,0.8
;   useFixedBridgingAngle,0
;   fixedBridgingAngle,0
;   applyBridgingToPerimeters,0
;   filamentDiameters,1.74|1.73|1.73|1.73|1.73|1.73
;   filamentPricesPerKg,18|18|18|18|18|18
;   filamentDensities,1.25|1.25|1.25|1.25|1.25|1.25
;   useMinPrintHeight,0
;   minPrintHeight,23
;   useMaxPrintHeight,0
;   maxPrintHeight,23.76
;   useDiaphragm,0
;   diaphragmLayerInterval,20
;   robustSlicing,1
;   mergeAllIntoSolid,0
;   onlyRetractWhenCrossingOutline,0
;   retractBetweenLayers,0
;   useRetractionMinTravel,1
;   retractionMinTravel,3
;   retractWhileWiping,0
;   onlyWipeOutlines,0
;   avoidCrossingOutline,1
;   maxMovementDetourFactor,400
;   toolChangeRetractionDistance,12
;   toolChangeExtraRestartDistance,-0.5
;   toolChangeRetractionSpeed,600
;   externalThinWallType,1
;   internalThinWallType,1
;   thinWallAllowedOverlapPercentage,50
;   singleExtrusionMinLength,1
;   singleExtrusionMinPrintingWidthPercentage,50
;   singleExtrusionMaxPrintingWidthPercentage,200
;   singleExtrusionEndpointExtension,0.2
;   horizontalSizeCompensation,0
G90
M82
M106 S0
M140 S60
M190 S60
M104 S220 T0
M109 S220 T0
M75 ; Start Print Timer and Engage Fil Sensor 
M84 E ; Disable E Motor for probe accuracy on direct drive systems 
G28 ; home all axes 
G28 Z ; home Z to get more accurate Z position 
G29; EZABL mesh generation 
G4 S10; wait for heaters to recover 
 
M117 Purge extruder 
G92 E0 ; reset extruder 
G1 Z1.0 F3000 ; move z up little 
G1 X0.1 Y20 Z0.3 F5000.0 ; move to start-line position
G1 X0.1 Y100.0 Z0.3 F1000.0 E15 ; draw 1st line 
G1 X0.4 Y100.0 Z0.3 F5000.0 ; move to side a little
G1 X0.4 Y20 Z0.3 F1000.0 E30 ; draw 2nd line 
G92 E0 ; reset extruder 
G1 Z1.0 F3000 ; move z up little 
 
M117 Printing..... 
G92 E0
G1 E-4.0000 F3900
G1 Z0.160 F1920
; process Process1
; layer 1, Z = 0.160
T0
; tool H0.200 W0.400
; skirt
G1 X8.152 Y10.191 F6000
G1 E0.0000 F1170
G92 E0
G1 X10.191 Y8.152 E0.0941 F900
G1 X10.559 Y8.000 E0.1071
G1 X34.442 Y8.000 E0.8865
G1 X34.809 Y8.152 E0.8995
G1 X36.848 Y10.191 E0.9935
G1 X37.000 Y10.559 E1.0065
G1 X37.000 Y18.500 E1.2657
G1 X183.000 Y18.500 E6.0303
G1 X183.000 Y10.559 E6.2895
G1 X183.152 Y10.191 E6.3024
G1 X185.191 Y8.152 E6.3965
G1 X185.559 Y8.000 E6.4095
G1 X209.441 Y8.000 E7.1889
G1 X209.809 Y8.152 E7.2019
G1 X211.848 Y10.191 E7.2960
G1 X212.000 Y10.559 E7.3090
G1 X212.000 Y34.442 E8.0884
G1 X211.848 Y34.809 E8.1014
G1 X209.809 Y36.848 E8.1954
G1 X209.441 Y37.000 E8.2084
G1 X201.640 Y37.000 E8.4630
G1 X201.640 Y183.000 E13.2276
G1 X209.441 Y183.000 E13.4822
G1 X209.809 Y183.152 E13.4952
G1 X211.848 Y185.191 E13.5893
G1 X212.000 Y185.559 E13.6023
G1 X212.000 Y209.441 E14.3817
G1 X211.848 Y209.809 E14.3946
G1 X209.809 Y211.848 E14.4887
G1 X209.441 Y212.000 E14.5017
G1 X185.559 Y212.000 E15.2811
G1 X185.191 Y211.848 E15.2941
G1 X183.152 Y209.809 E15.3882
G1 X183.000 Y209.441 E15.4012
G1 X183.000 Y201.780 E15.6512
G1 X37.000 Y201.780 E20.4158
G1 X37.000 Y209.441 E20.6658
G1 X36.848 Y209.809 E20.6788
G1 X34.809 Y211.848 E20.7729
G1 X34.442 Y212.000 E20.7859
G1 X10.559 Y212.000 E21.5653
G1 X10.191 Y211.848 E21.5782
G1 X8.152 Y209.809 E21.6723
G1 X8.000 Y209.441 E21.6853
G1 X8.000 Y185.559 E22.4647
G1 X8.152 Y185.191 E22.4777
G1 X10.191 Y183.152 E22.5718
G1 X10.559 Y183.000 E22.5848
G1 X18.220 Y183.000 E22.8348
G1 X18.220 Y37.000 E27.5994
G1 X10.559 Y37.000 E27.8494
G1 X10.191 Y36.848 E27.8624
G1 X8.152 Y34.809 E27.9565
G1 X8.000 Y34.442 E27.9695
G1 X8.000 Y10.559 E28.7489
G1 X8.152 Y10.191 E28.7619
G1 X10.191 Y8.152 F3000
G1 X10.559 Y8.000 F3000
G1 X11.278 Y8.000 F3000
G1 X10.638 Y8.400 F6000
G92 E0
G1 X34.362 Y8.400 E0.7742 F900
G1 X34.583 Y8.491 E0.7820
G1 X36.509 Y10.418 E0.8709
G1 X36.600 Y10.638 E0.8787
G1 X36.600 Y18.900 E1.1483
G1 X183.400 Y18.900 E5.9390
G1 X183.400 Y10.638 E6.2086
G1 X183.492 Y10.418 E6.2164
G1 X185.418 Y8.491 E6.3053
G1 X185.638 Y8.400 E6.3131
G1 X209.362 Y8.400 E7.0873
G1 X209.582 Y8.491 E7.0951
G1 X211.509 Y10.418 E7.1840
G1 X211.600 Y10.638 E7.1918
G1 X211.600 Y34.362 E7.9660
G1 X211.509 Y34.583 E7.9738
G1 X209.582 Y36.509 E8.0627
G1 X209.362 Y36.600 E8.0705
G1 X201.240 Y36.600 E8.3355
G1 X201.240 Y183.400 E13.1262
G1 X209.362 Y183.400 E13.3913
G1 X209.582 Y183.492 E13.3991
G1 X211.509 Y185.418 E13.4880
G1 X211.600 Y185.638 E13.4958
G1 X211.600 Y209.362 E14.2700
G1 X211.509 Y209.582 E14.2778
G1 X209.582 Y211.509 E14.3666
G1 X209.362 Y211.600 E14.3744
G1 X185.638 Y211.600 E15.1486
G1 X185.418 Y211.509 E15.1564
G1 X183.492 Y209.582 E15.2453
G1 X183.400 Y209.362 E15.2531
G1 X183.400 Y201.380 E15.5136
G1 X36.600 Y201.380 E20.3043
G1 X36.600 Y209.362 E20.5648
G1 X36.509 Y209.582 E20.5726
G1 X34.583 Y211.509 E20.6615
G1 X34.362 Y211.600 E20.6693
G1 X10.638 Y211.600 E21.4435
G1 X10.418 Y211.509 E21.4513
G1 X8.491 Y209.582 E21.5401
G1 X8.400 Y209.362 E21.5479
G1 X8.400 Y185.638 E22.3221
G1 X8.491 Y185.418 E22.3299
G1 X10.418 Y183.492 E22.4188
G1 X10.638 Y183.400 E22.4266
G1 X18.620 Y183.400 E22.6871
G1 X18.620 Y36.600 E27.4778
G1 X10.638 Y36.600 E27.7383
G1 X10.418 Y36.509 E27.7461
G1 X8.491 Y34.583 E27.8350
G1 X8.400 Y34.362 E27.8428
G1 X8.400 Y10.638 E28.6170
G1 X8.491 Y10.418 E28.6248
G1 X10.418 Y8.491 E28.7137
G1 X10.638 Y8.400 E28.7215
G92 E0
G1 E-4.0000 F3900
G1 X14.638 Y8.400 F3000
G1 X10.718 Y8.800 F6000
G1 E0.0000 F3900
G92 E0
G1 X34.283 Y8.800 E0.7690 F900
G1 X34.356 Y8.831 E0.7716
G1 X36.170 Y10.644 E0.8553
G1 X36.200 Y10.718 E0.8579
G1 X36.200 Y19.300 E1.1380
G1 X183.800 Y19.300 E5.9548
G1 X183.800 Y10.718 E6.2349
G1 X183.831 Y10.644 E6.2375
G1 X185.644 Y8.831 E6.3212
G1 X185.718 Y8.800 E6.3238
G1 X209.282 Y8.800 E7.0928
G1 X209.356 Y8.831 E7.0954
G1 X211.169 Y10.644 E7.1791
G1 X211.200 Y10.718 E7.1817
G1 X211.200 Y34.283 E7.9507
G1 X211.169 Y34.356 E7.9533
G1 X209.356 Y36.170 E8.0370
G1 X209.282 Y36.200 E8.0396
G1 X200.840 Y36.200 E8.3151
G1 X200.840 Y183.800 E13.1319
G1 X209.282 Y183.800 E13.4074
G1 X209.356 Y183.831 E13.4100
G1 X211.169 Y185.644 E13.4937
G1 X211.200 Y185.718 E13.4963
G1 X211.200 Y209.282 E14.2653
G1 X211.169 Y209.356 E14.2679
G1 X209.356 Y211.169 E14.3516
G1 X209.282 Y211.200 E14.3542
G1 X185.718 Y211.200 E15.1232
G1 X185.644 Y211.169 E15.1258
G1 X183.831 Y209.356 E15.2095
G1 X183.800 Y209.282 E15.2121
G1 X183.800 Y200.980 E15.4831
G1 X36.200 Y200.980 E20.2999
G1 X36.200 Y209.282 E20.5708
G1 X36.170 Y209.356 E20.5734
G1 X34.356 Y211.169 E20.6571
G1 X34.283 Y211.200 E20.6597
G1 X10.718 Y211.200 E21.4287
G1 X10.644 Y211.169 E21.4313
G1 X8.831 Y209.356 E21.5150
G1 X8.800 Y209.282 E21.5176
G1 X8.800 Y185.718 E22.2866
G1 X8.831 Y185.644 E22.2892
G1 X10.644 Y183.831 E22.3729
G1 X10.718 Y183.800 E22.3755
G1 X19.020 Y183.800 E22.6465
G1 X19.020 Y36.200 E27.4633
G1 X10.718 Y36.200 E27.7342
G1 X10.644 Y36.170 E27.7368
G1 X8.831 Y34.356 E27.8205
G1 X8.800 Y34.283 E27.8231
G1 X8.800 Y10.718 E28.5922
G1 X8.831 Y10.644 E28.5948
G1 X10.644 Y8.831 E28.6785
G1 X10.718 Y8.800 E28.6810
G92 E0
G1 E-4.0000 F3900
G1 X14.718 Y8.800 F3000
; inner perimeter
G1 X187.196 Y12.196 F6000
G1 X187.196 Y12.568 F6000
G1 X207.000 Y13.000 F6000
G1 E0.0000 F3900
G92 E0
G1 X207.000 Y32.000 E0.6201 F810
G1 X188.000 Y32.000 E1.2401
G1 X188.000 Y13.000 E1.8601
G1 X207.000 Y13.000 E2.4802
G92 E0
G1 E-4.0000 F3900
G1 X207.000 Y17.000 F3000
G1 X119.500 Y100.500 F6000
G1 E0.0000 F3900
G92 E0
G1 X119.500 Y119.500 E0.6200 F810
G1 X100.500 Y119.500 E1.2401
G1 X100.500 Y100.500 E1.8601
G1 X119.500 Y100.500 E2.4802
G92 E0
G1 E-4.0000 F3900
G1 X119.500 Y104.500 F3000
G1 X188.000 Y188.000 F6000
G1 E0.0000 F3900
G92 E0
G1 X207.000 Y188.000 E0.6200 F810
G1 X207.000 Y207.000 E1.2401
G1 X188.000 Y207.000 E1.8601
G1 X188.000 Y188.000 E2.4802
G92 E0
G1 E-4.0000 F3900
G1 X192.000 Y188.000 F3000
G1 X32.000 Y188.000 F6000
G1 E0.0000 F3900
G92 E0
G1 X32.000 Y207.000 E0.6200 F810
G1 X13.000 Y207.000 E1.2401
G1 X13.000 Y188.000 E1.8601
G1 X32.000 Y188.000 E2.4802
G92 E0
G1 E-4.0000 F3900
G1 X32.000 Y192.000 F3000
G1 X32.000 Y32.000 F6000
G1 E0.0000 F3900
G92 E0
G1 X13.000 Y32.000 E0.6201 F810
G1 X13.000 Y13.000 E1.2401
G1 X32.000 Y13.000 E1.8602
G1 X32.000 Y32.000 E2.4802
G92 E0
G1 E-4.0000 F3900
G1 X28.000 Y32.000 F3000
G1 X32.400 Y32.400 F6000
G1 E0.0000 F3900
G92 E0
G1 X12.600 Y32.400 E0.6462 F810
G1 X12.600 Y12.600 E1.2923
G1 X32.400 Y12.600 E1.9385
G1 X32.400 Y32.400 E2.5846
G92 E0
G1 E-4.0000 F3900
G1 X28.400 Y32.400 F3000
G1 X100.100 Y100.100 F6000
G1 E0.0000 F3900
G92 E0
G1 X119.900 Y100.100 E0.6462 F810
G1 X119.900 Y119.900 E1.2923
G1 X100.100 Y119.900 E1.9385
G1 X100.100 Y100.100 E2.5846
G92 E0
G1 E-4.0000 F3900
G1 X104.100 Y100.100 F3000
G1 X187.600 Y32.400 F6000
G1 E0.0000 F3900
G92 E0
G1 X187.600 Y12.600 E0.6462 F810
G1 X207.400 Y12.600 E1.2923
G1 X207.400 Y32.400 E1.9385
G1 X187.600 Y32.400 E2.5846
G92 E0
G1 E-4.0000 F3900
G1 X187.600 Y28.400 F3000
G1 X187.600 Y187.600 F6000
G1 E0.0000 F3900
G92 E0
G1 X207.400 Y187.600 E0.6461 F810
G1 X207.400 Y207.400 E1.2923
G1 X187.600 Y207.400 E1.9384
G1 X187.600 Y187.600 E2.5846
G92 E0
G1 E-4.0000 F3900
G1 X191.600 Y187.600 F3000
G1 X32.400 Y187.600 F6000
G1 E0.0000 F3900
G92 E0
G1 X32.400 Y207.400 E0.6461 F810
G1 X12.600 Y207.400 E1.2923
G1 X12.600 Y187.600 E1.9385
G1 X32.400 Y187.600 E2.5846
G92 E0
G1 E-4.0000 F3900
G1 X32.400 Y191.600 F3000
; outer perimeter
G1 X32.800 Y187.200 F6000
G1 E0.0000 F3900
G92 E0
G1 X32.800 Y207.800 E0.6723 F720
G1 X12.200 Y207.800 E1.3445
G1 X12.200 Y187.200 E2.0168
G1 X32.800 Y187.200 E2.6890
G92 E0
G1 E-4.0000 F3900
G1 X32.800 Y191.200 F3000
G1 X99.700 Y120.300 F6000
G1 E0.0000 F3900
G92 E0
G1 X99.700 Y99.700 E0.6723 F720
G1 X120.300 Y99.700 E1.3445
G1 X120.300 Y120.300 E2.0168
G1 X99.700 Y120.300 E2.6891
G92 E0
G1 E-4.0000 F3900
G1 X99.700 Y116.300 F3000
G1 X32.800 Y32.800 F6000
G1 E0.0000 F3900
G92 E0
G1 X12.200 Y32.800 E0.6723 F720
G1 X12.200 Y12.200 E1.3445
G1 X32.800 Y12.200 E2.0168
G1 X32.800 Y32.800 E2.6891
G92 E0
G1 E-4.0000 F3900
G1 X28.800 Y32.800 F3000
G1 X187.200 Y32.800 F6000
G1 E0.0000 F3900
G92 E0
G1 X187.200 Y12.200 E0.6723 F720
G1 X207.800 Y12.200 E1.3445
G1 X207.800 Y32.800 E2.0168
G1 X187.200 Y32.800 E2.6890
G92 E0
G1 E-4.0000 F3900
G1 X187.200 Y28.800 F3000
G1 X187.200 Y187.200 F6000
G1 E0.0000 F3900
G92 E0
G1 X207.800 Y187.200 E0.6723 F720
G1 X207.800 Y207.800 E1.3445
G1 X187.200 Y207.800 E2.0168
G1 X187.200 Y187.200 E2.6890
G92 E0
G1 E-4.0000 F3900
G1 X191.200 Y187.200 F3000
; external single extrusion
G1 X197.500 Y187.036 F6000
G1 E0.0000 F3900
G92 E0
; tool H0.200 W0.280
G1 X197.500 Y110.200 E1.7557 F720
G1 X197.499 Y110.120 E1.7575
; tool H0.200 W0.299
G1 X197.482 Y110.040 E1.7595
; tool H0.200 W0.316
G1 X197.482 Y109.960 E1.7616
; tool H0.200 W0.299
G1 X197.499 Y109.880 E1.7636
; tool H0.200 W0.281
G1 X197.500 Y109.800 E1.7654
G1 X197.500 Y32.964 E3.5255
G92 E0
G1 E-4.0000 F3900
