;FLAVOR:Marlin
;TIME:3670
;Filament used: 3.15105m
;Layer height: 0.2
;Generated with Cura_SteamEngine 3.4.1
M190 S60
M104 S195
M109 S195
M82 ;absolute extrusion mode
G28 ;Home
G1 Z15.0 F6000 ;Move the platform down 15mm
;Prime the extruder
G92 E0
G1 F200 E3
G92 E0
G92 E0
G1 F2400 E-5
;LAYER_COUNT:170
;LAYER:0
M107
M204 S5000
M205 X30 Y30
G0 F3600 X85.426 Y84.555 Z0.2
M204 S500
M205 X20 Y20
;TYPE:SKIRT
G1 F2400 E0
G1 F1800 X85.85 Y84.181 E0.0188
G1 X86.144 Y83.947 E0.0313
G1 X86.691 Y83.563 E0.05353
G1 X87.28 Y83.246 E0.07578
G1 X87.903 Y83.002 E0.09803
G1 X88.551 Y82.834 E0.1203
G1 X89.214 Y82.745 E0.14255
G1 X89.633 Y82.729 E0.15649
G1 X98.443 Y82.732 E0.44951
G1 X98.759 Y82.741 E0.46003
G1 X101.256 Y82.883 E0.54321
G1 X105.481 Y82.974 E0.68377
G1 X112.271 Y82.981 E0.90961
G1 X112.939 Y83.022 E0.93187
G1 X113.597 Y83.142 E0.95411
G1 X114.53 Y83.46 E0.9869
G1 X114.738 Y83.552 E0.99446
G1 X115.333 Y83.858 E1.01672
G1 X115.887 Y84.234 E1.03898
G1 X116.392 Y84.672 E1.06122
G1 X116.841 Y85.168 E1.08347
G1 X117.228 Y85.714 E1.10573
G1 X117.569 Y86.351 E1.12976
G1 X118.764 Y88.974 E1.22563
G1 X121.209 Y93.774 E1.4048
G1 X123.895 Y98.386 E1.58231
G1 X126.83 Y102.824 E1.75928
G1 X130.03 Y107.118 E1.93739
G1 X133.455 Y111.207 E2.1148
G1 X137.152 Y115.146 E2.29448
G1 X139.213 Y117.195 E2.39114
G1 X139.658 Y117.694 E2.41338
G1 X140.041 Y118.243 E2.43564
G1 X140.355 Y118.834 E2.4579
G1 X140.597 Y119.457 E2.48013
G1 X140.763 Y120.106 E2.50241
G1 X140.85 Y120.769 E2.52465
G1 X140.864 Y121.175 E2.53816
G1 X140.847 Y131.24 E2.87293
G1 X140.806 Y131.908 E2.89519
G1 X140.685 Y132.566 E2.91744
G1 X140.487 Y133.205 E2.93969
G1 X140.215 Y133.816 E2.96193
G1 X139.871 Y134.39 E2.98419
G1 X139.461 Y134.919 E3.00645
G1 X138.75 Y135.6 E3.0392
G1 X138.624 Y135.701 E3.04457
G1 X138.077 Y136.088 E3.06685
G1 X137.489 Y136.407 E3.0891
G1 X136.867 Y136.653 E3.11135
G1 X136.22 Y136.823 E3.1336
G1 X135.557 Y136.915 E3.15586
G1 X135.138 Y136.932 E3.16981
G1 X117.308 Y136.988 E3.76284
G1 X112.269 Y137.256 E3.93068
G1 X111.959 Y137.264 E3.94099
G1 X101.209 Y137.241 E4.29854
G1 X100.541 Y137.2 E4.3208
G1 X99.883 Y137.079 E4.34305
G1 X99.244 Y136.881 E4.3653
G1 X98.484 Y136.526 E4.3932
G1 X98.177 Y136.354 E4.4049
G1 X97.614 Y135.993 E4.42715
G1 X97.098 Y135.567 E4.4494
G1 X96.636 Y135.083 E4.47166
G1 X96.234 Y134.544 E4.49402
G1 X96.121 Y134.372 E4.50087
G1 X95.787 Y133.792 E4.52313
G1 X95.526 Y133.176 E4.54538
G1 X95.283 Y132.252 E4.57715
G1 X93.996 Y124.814 E4.82822
G1 X92.751 Y119.649 E5.00493
G1 X91.213 Y114.542 E5.18232
G1 X89.372 Y109.489 E5.36119
G1 X88.384 Y107.094 E5.44736
G1 X86.108 Y102.186 E5.6273
G1 X84.317 Y98.754 E5.75606
G1 X84.044 Y98.144 E5.77829
G1 X83.845 Y97.505 E5.80055
G1 X83.724 Y96.847 E5.8228
G1 X83.682 Y96.173 E5.84526
G1 X83.671 Y89.391 E6.07083
G1 X83.689 Y88.932 E6.08611
G1 X83.755 Y88.113 E6.11344
G1 X83.849 Y87.451 E6.13568
G1 X84.02 Y86.804 E6.15794
G1 X84.268 Y86.183 E6.18018
G1 X84.588 Y85.595 E6.20244
G1 X84.976 Y85.05 E6.22469
G1 X85.426 Y84.555 E6.24694
M204 S5000
M205 X30 Y30
G0 F3600 X85.808 Y84.744
M204 S500
M205 X20 Y20
G1 F1800 X86.099 Y84.494 E6.2597
G1 X86.393 Y84.26 E6.2722
G1 X86.921 Y83.891 E6.29363
G1 X87.491 Y83.59 E6.31506
G1 X88.094 Y83.361 E6.33652
G1 X88.72 Y83.209 E6.35794
G1 X89.633 Y83.129 E6.38843
G1 X98.443 Y83.132 E6.68145
G1 X98.736 Y83.14 E6.6912
G1 X101.252 Y83.283 E6.77501
G1 X105.472 Y83.374 E6.91541
G1 X112.27 Y83.381 E7.14151
G1 X112.914 Y83.422 E7.16297
G1 X113.547 Y83.542 E7.1844
G1 X114.368 Y83.825 E7.21328
G1 X114.576 Y83.917 E7.22085
G1 X115.149 Y84.214 E7.24231
G1 X115.68 Y84.58 E7.26376
G1 X116.162 Y85.008 E7.2852
G1 X116.587 Y85.492 E7.30663
G1 X116.949 Y86.026 E7.32808
G1 X117.205 Y86.516 E7.34647
G1 X118.406 Y89.151 E7.44279
G1 X120.86 Y93.97 E7.62265
G1 X123.546 Y98.581 E7.80014
G1 X126.519 Y103.079 E7.97947
G1 X129.711 Y107.36 E8.15708
G1 X133.156 Y111.473 E8.33552
G1 X136.861 Y115.42 E8.51558
G1 X138.931 Y117.479 E8.61268
G1 X139.359 Y117.961 E8.63412
G1 X139.724 Y118.492 E8.65555
G1 X140.02 Y119.064 E8.67697
G1 X140.244 Y119.669 E8.69843
G1 X140.391 Y120.297 E8.71988
G1 X140.464 Y121.175 E8.74919
G1 X140.447 Y131.24 E9.08395
G1 X140.406 Y131.883 E9.10538
G1 X140.286 Y132.516 E9.12681
G1 X140.088 Y133.13 E9.14827
G1 X139.816 Y133.714 E9.16969
G1 X139.473 Y134.261 E9.19117
G1 X139.066 Y134.76 E9.21259
G1 X138.499 Y135.288 E9.23835
G1 X138.373 Y135.389 E9.24373
G1 X137.846 Y135.761 E9.26518
G1 X137.277 Y136.064 E9.28662
G1 X136.675 Y136.294 E9.30806
G1 X136.049 Y136.448 E9.3295
G1 X135.137 Y136.532 E9.35996
G1 X117.306 Y136.588 E9.95302
G1 X112.248 Y136.857 E10.12149
G1 X111.96 Y136.864 E10.13107
G1 X101.21 Y136.841 E10.48862
G1 X100.567 Y136.8 E10.51005
G1 X99.933 Y136.679 E10.53152
G1 X99.32 Y136.481 E10.55294
G1 X98.679 Y136.178 E10.57652
G1 X98.372 Y136.006 E10.58823
G1 X97.831 Y135.656 E10.60966
G1 X97.336 Y135.242 E10.63112
G1 X96.897 Y134.771 E10.65254
G1 X96.568 Y134.324 E10.671
G1 X96.455 Y134.152 E10.67784
G1 X96.135 Y133.593 E10.69927
G1 X95.887 Y132.998 E10.72071
G1 X95.677 Y132.184 E10.74867
G1 X94.386 Y124.727 E11.00038
G1 X93.139 Y119.549 E11.17752
G1 X91.591 Y114.411 E11.356
G1 X89.754 Y109.368 E11.53451
G1 X88.741 Y106.914 E11.62281
G1 X86.464 Y102.003 E11.80286
G1 X84.672 Y98.569 E11.93169
G1 X84.41 Y97.98 E11.95313
G1 X84.222 Y97.363 E11.97458
G1 X84.113 Y96.728 E11.99601
G1 X84.082 Y96.172 E12.01453
G1 X84.071 Y89.39 E12.2401
G1 X84.088 Y88.964 E12.25428
G1 X84.154 Y88.145 E12.28161
G1 X84.245 Y87.507 E12.30305
G1 X84.415 Y86.885 E12.32449
G1 X84.661 Y86.289 E12.34594
G1 X84.978 Y85.728 E12.36737
G1 X85.362 Y85.21 E12.38882
G1 X85.808 Y84.744 E12.41027
M204 S5000
M205 X30 Y30
G0 F3600 X89.599 Y88.555
M204 S500
M205 X20 Y20
;TYPE:SUPPORT
G1 F1800 X89.676 Y88.518 E12.41311
G1 X91.184 Y88.519 E12.46327
G1 X91.385 Y88.48 E12.47008
G1 X91.694 Y88.518 E12.48043
G1 X93.947 Y88.526 E12.55537
G1 X93.962 Y88.518 E12.55593
G1 X98.128 Y88.522 E12.6945
G1 X98.13 Y93.746 E12.86825
G1 X98.529 Y94.145 E12.88701
G1 X100.035 Y94.145 E12.9371
G1 X100.035 Y96.243 E13.00688
G1 X94.645 Y96.245 E13.18616
G1 X94.262 Y96.269 E13.19892
G1 X94.131 Y96.245 E13.20335
G1 X90.252 Y96.245 E13.33237
G1 X89.995 Y96.277 E13.34098
G1 X89.58 Y96.203 E13.355
G1 X89.472 Y96.088 E13.36025
G1 X89.471 Y88.736 E13.60478
G1 X89.5 Y88.666 E13.6073
G1 X89.599 Y88.555 E13.61224
M204 S5000
M205 X30 Y30
G0 F3600 X90.644 Y88.719
M204 S500
M205 X20 Y20
G1 F1800 X90.644 Y96.045 E13.85591
M204 S5000
M205 X30 Y30
G0 F3600 X89.673 Y95.976
M204 S500
M205 X20 Y20
G1 F1800 X99.835 Y95.976 E14.1939
M204 S5000
M205 X30 Y30
G0 F3600 X98.642 Y96.044
M204 S500
M205 X20 Y20
G1 F1800 X98.642 Y94.345 E14.2504
M204 S5000
M205 X30 Y30
G0 F3600 X97.93 Y93.31
M204 S500
M205 X20 Y20
G1 F1800 X89.673 Y93.31 E14.52503
M204 S5000
M205 X30 Y30
G0 F3600 X89.673 Y90.644
M204 S500
M205 X20 Y20
G1 F1800 X97.929 Y90.644 E14.79963
M204 S5000
M205 X30 Y30
G0 F3600 X95.976 Y88.721
M204 S500
M205 X20 Y20
G1 F1800 X95.976 Y96.045 E15.04323
M204 S5000
M205 X30 Y30
G0 F3600 X93.31 Y96.045
M204 S500
M205 X20 Y20
G1 F1800 X93.31 Y88.724 E15.28672
M204 S5000
M205 X30 Y30
G0 F3600 X96.006 Y95.085
M204 S500
M205 X20 Y20
G1 F1800 X96.738 Y95.085 E15.31107
G1 X97.335 Y95.519 E15.33562
G1 X97.562 Y96.217 E15.36003
G1 X97.444 Y96.578 E15.37266
G1 X98.999 Y97.71 E15.43664
G1 X99.612 Y99.595 E15.50256
G1 X98.999 Y101.48 E15.56849
G1 X97.391 Y102.65 E15.63463
G1 X95.409 Y102.65 E15.70055
G1 X93.801 Y101.48 E15.76669
G1 X93.188 Y99.595 E15.83262
G1 X93.801 Y97.71 E15.89855
G1 X94.212 Y97.41 E15.91547
G1 X94.081 Y97.008 E15.92954
G1 X94.326 Y96.259 E15.95575
G1 X94.966 Y95.793 E15.98208
G1 X95.321 Y95.793 E15.99389
G1 X95.409 Y95.519 E16.00346
G1 X96.006 Y95.085 E16.02801
M204 S5000
M205 X30 Y30
G0 F3600 X95.976 Y95.354
M204 S500
M205 X20 Y20
G1 F1800 X95.976 Y102.45 E16.26402
M204 S5000
M205 X30 Y30
G0 F3600 X93.955 Y101.308
M204 S500
M205 X20 Y20
G1 F1800 X98.844 Y101.308 E16.42663
M204 S5000
M205 X30 Y30
G0 F3600 X98.642 Y101.493
M204 S500
M205 X20 Y20
G1 F1800 X98.642 Y97.698 E16.55285
M204 S5000
M205 X30 Y30
G0 F3600 X99.092 Y98.642
M204 S500
M205 X20 Y20
G1 F1800 X93.709 Y98.642 E16.73189
M204 S5000
M205 X30 Y30
G0 F3600 X95.473 Y95.976
M204 S500
M205 X20 Y20
G1 F1800 X97.274 Y95.976 E16.79179
M204 S5000
M205 X30 Y30
G1 F2400 E11.79179
G0 F3600 X100.387 Y118.444
G0 X100.94 Y119.455
M204 S500
M205 X20 Y20
G1 F2400 E16.79179
G1 F1800 X101.154 Y119.492 E16.79901
G1 X101.455 Y119.419 E16.80932
G1 X101.535 Y119.437 E16.81204
G1 X101.608 Y119.383 E16.81506
G1 X101.783 Y119.341 E16.82105
G1 X103.14 Y119.224 E16.86635
G1 X103.384 Y119.208 E16.87448
G1 X104.944 Y119.349 E16.92658
G1 X106.419 Y119.746 E16.97739
G1 X107.844 Y120.406 E17.02962
G1 X109.148 Y121.31 E17.08239
G1 X109.247 Y121.394 E17.08671
G1 X110.244 Y122.392 E17.13363
G1 X110.342 Y122.508 E17.13868
G1 X111.159 Y123.67 E17.18593
G1 X111.197 Y123.733 E17.18837
G1 X111.89 Y125.218 E17.24288
G1 X112.275 Y126.656 E17.29239
G1 X112.304 Y126.811 E17.29763
G1 X112.427 Y128.257 E17.3459
G1 X112.294 Y129.85 E17.39907
G1 X112.208 Y130.191 E17.41077
G1 X111.844 Y131.473 E17.45509
G1 X101.528 Y131.468 E17.7982
G1 X101.399 Y131.474 E17.8025
G1 X101.317 Y131.468 E17.80523
G1 X101.206 Y131.437 E17.80907
G1 X101.072 Y131.354 E17.81431
G1 X101.001 Y131.286 E17.81758
G1 X100.974 Y131.232 E17.81959
G1 X100.948 Y131.038 E17.8261
G1 X100.937 Y129.835 E17.86611
G1 X100.943 Y128.088 E17.92422
G1 X100.938 Y127.696 E17.93726
G1 X100.94 Y119.455 E18.21135
M204 S5000
M205 X30 Y30
G0 F3600 X101.308 Y119.66
M204 S500
M205 X20 Y20
G1 F1800 X101.308 Y131.257 E18.59707
M204 S5000
M205 X30 Y30
G0 F3600 X101.143 Y130.634
M204 S500
M205 X20 Y20
G1 F1800 X111.873 Y130.634 E18.95395
M204 S5000
M205 X30 Y30
G0 F3600 X111.972 Y130.291
M204 S500
M205 X20 Y20
G1 F1800 X111.972 Y126.297 E19.08679
M204 S5000
M205 X30 Y30
G0 F3600 X111.706 Y125.302
M204 S500
M205 X20 Y20
G1 F1800 X101.138 Y125.302 E19.43829
M204 S5000
M205 X30 Y30
G0 F3600 X101.139 Y122.636
M204 S500
M205 X20 Y20
G1 F1800 X110.186 Y122.636 E19.73919
M204 S5000
M205 X30 Y30
G0 F3600 X109.306 Y121.736
M204 S500
M205 X20 Y20
G1 F1800 X109.306 Y131.271 E20.05633
M204 S5000
M205 X30 Y30
G0 F3600 X106.64 Y131.27
M204 S500
M205 X20 Y20
G1 F1800 X106.64 Y120.069 E20.42887
M204 S5000
M205 X30 Y30
G0 F3600 X106.427 Y119.97
M204 S500
M205 X20 Y20
G1 F1800 X101.139 Y119.97 E20.60475
M204 S5000
M205 X30 Y30
G0 F3600 X103.974 Y119.462
M204 S500
M205 X20 Y20
G1 F1800 X103.974 Y131.269 E20.99745
M204 S5000
M205 X30 Y30
G0 F3600 X101.14 Y127.968
M204 S500
M205 X20 Y20
G1 F1800 X112.202 Y127.968 E21.36538
M204 S5000
M205 X30 Y30
G0 F3600 X103.734 Y121.016
M204 S500
M205 X20 Y20
G1 F1800 X103.269 Y121.355 E21.38452
G1 X102.697 Y121.355 E21.40354
G1 X102.232 Y121.016 E21.42268
G1 X102.054 Y120.472 E21.44172
G1 X102.232 Y119.928 E21.46076
G1 X102.697 Y119.589 E21.4799
G1 X103.269 Y119.589 E21.49892
G1 X103.734 Y119.928 E21.51806
G1 X103.912 Y120.472 E21.5371
G1 X103.734 Y121.016 E21.55614
M204 S5000
M205 X30 Y30
G0 F3600 X103.451 Y119.97
M204 S500
M205 X20 Y20
G1 F1800 X102.514 Y119.97 E21.5873
M204 S5000
M205 X30 Y30
G0 F3600 X104.106 Y121.804
M204 S500
M205 X20 Y20
G1 F1800 X104.571 Y121.465 E21.60644
G1 X105.143 Y121.465 E21.62547
G1 X105.608 Y121.804 E21.6446
G1 X105.786 Y122.348 E21.66364
G1 X105.608 Y122.892 E21.68268
G1 X105.143 Y123.231 E21.70182
G1 X104.571 Y123.231 E21.72084
G1 X104.106 Y122.892 E21.73998
G1 X103.928 Y122.348 E21.75902
G1 X104.106 Y121.804 E21.77806
M204 S5000
M205 X30 Y30
G0 F3600 X104.231 Y122.636
M204 S500
M205 X20 Y20
G1 F1800 X105.48 Y122.636 E21.8196
M204 S5000
M205 X30 Y30
G0 F3600 X104.891 Y123.903
M204 S500
M205 X20 Y20
G1 F1800 X105.356 Y124.242 E21.83874
G1 X105.534 Y124.786 E21.85778
G1 X105.356 Y125.33 E21.87682
G1 X104.891 Y125.669 E21.89595
G1 X104.319 Y125.669 E21.91498
G1 X104.068 Y125.487 E21.92529
G1 X103.43 Y125.487 E21.94651
G1 X102.965 Y125.148 E21.96565
G1 X102.787 Y124.604 E21.98469
G1 X102.965 Y124.06 E22.00373
G1 X103.43 Y123.721 E22.02287
G1 X104.002 Y123.721 E22.04189
G1 X104.253 Y123.903 E22.0522
G1 X104.891 Y123.903 E22.07342
M204 S5000
M205 X30 Y30
G0 F3600 X103.974 Y123.948
M204 S500
M205 X20 Y20
G1 F1800 X103.974 Y125.287 E22.11796
M204 S5000
M205 X30 Y30
G0 F3600 X104.152 Y125.302
M204 S500
M205 X20 Y20
G1 F1800 X105.053 Y125.302 E22.14793
M204 S5000
M205 X30 Y30
G0 F3600 X105.115 Y126.695
M204 S500
M205 X20 Y20
G1 F1800 X105.687 Y126.695 E22.16695
G1 X106.152 Y127.034 E22.18609
G1 X106.376 Y127.723 E22.21019
G1 X107.545 Y127.57 E22.2494
G1 X107.322 Y126.887 E22.2733
G1 X107.5 Y126.343 E22.29233
G1 X107.965 Y126.004 E22.31147
G1 X108.711 Y126.004 E22.33629
G1 X108.462 Y125.244 E22.36289
G1 X108.64 Y124.7 E22.38192
G1 X109.105 Y124.361 E22.40106
G1 X109.677 Y124.361 E22.42009
G1 X110.142 Y124.7 E22.43923
G1 X110.32 Y125.244 E22.45826
G1 X110.142 Y125.788 E22.4773
G1 X109.677 Y126.127 E22.49644
G1 X108.931 Y126.127 E22.52125
G1 X109.18 Y126.887 E22.54785
G1 X109.002 Y127.431 E22.56689
G1 X108.537 Y127.77 E22.58603
G1 X107.7 Y127.77 E22.61387
G1 X107.933 Y128.486 E22.63891
G1 X107.755 Y129.03 E22.65795
G1 X107.29 Y129.369 E22.67709
G1 X106.718 Y129.369 E22.69611
G1 X106.253 Y129.03 E22.71525
G1 X106.029 Y128.343 E22.73929
G1 X105.104 Y128.453 E22.77027
G1 X104.65 Y128.122 E22.78896
G1 X104.472 Y127.578 E22.80799
G1 X104.65 Y127.034 E22.82703
G1 X105.115 Y126.695 E22.84617
M204 S5000
M205 X30 Y30
G0 F3600 X104.809 Y127.968
M204 S500
M205 X20 Y20
G1 F1800 X107.554 Y127.968 E22.93747
M204 S5000
M205 X30 Y30
G0 F3600 X106.64 Y127.89
M204 S500
M205 X20 Y20
G1 F1800 X106.64 Y129.064 E22.97652
M204 S5000
M205 X30 Y30
G0 F3600 X109.306 Y125.927
M204 S500
M205 X20 Y20
G1 F1800 X109.306 Y124.561 E23.02195
M204 S5000
M205 X30 Y30
G0 F3600 X108.69 Y125.302
M204 S500
M205 X20 Y20
G1 F1800 X110.089 Y125.302 E23.06848
M204 S5000
M205 X30 Y30
G1 F2400 E18.06848
G0 F3600 X111.639 Y124.053
G0 X112.703 Y123.335
G0 X112.601 Y122.227
M204 S500
M205 X20 Y20
;TYPE:WALL-INNER
G1 F2400 E23.06848
G1 F1800 X112.413 Y122.067 E23.07669
G1 X112.291 Y121.962 E23.08205
G1 X112.439 Y122.037 E23.08241
G1 X112.626 Y122.066 E23.08348
G1 X112.652 Y122.07
G1 X112.737 Y122.084 E23.0839
G1 X112.792 Y122.084 E23.08573
G1 X126.225 Y122.089 E23.53251
G1 X126.472 Y122.089 E23.54073
G1 X126.776 Y122.089 E23.55084
G1 X127.041 Y122.089 E23.55965
G1 X127.23 Y122.089 E23.56594
G1 X134.288 Y122.092 E23.80069
G1 X134.287 Y130.347 E24.07525
G1 X114.35 Y130.348 E24.73836
G1 X114.154 Y130.348 E24.74488
G1 X114.144 Y130.349 E24.74521
G1 X114.153 Y130.265 E24.74672
G1 X114.194 Y130.074 E24.75121
G1 X114.25 Y129.813 E24.76009
G1 X114.312 Y128.781 E24.79447
G1 X114.306 Y128.726 E24.79631
G1 X114.332 Y128.44 E24.80586
G1 X114.332 Y128.169 E24.81488
G1 X114.313 Y127.945 E24.82235
G1 X114.319 Y127.902 E24.8238
G1 X114.224 Y126.386 E24.87432
G1 X114.126 Y126.212 E24.88096
G1 X114.111 Y126.149 E24.88312
G1 X114.113 Y126.07 E24.88574
G1 X114.069 Y125.905 E24.89142
G1 X114.063 Y125.7 E24.89825
G1 X113.954 Y125.53 E24.90496
G1 X113.889 Y125.274 E24.91375
G1 X113.857 Y125.106 E24.91943
G1 X113.737 Y124.654 E24.93499
G1 X113.72 Y124.635 E24.93584
G1 X113.702 Y124.567 E24.93818
G1 X113.623 Y124.424 E24.94361
G1 X113.49 Y124.115 E24.9548
G1 X113.425 Y123.981 E24.95975
G1 X113.418 Y123.926 E24.9616
G1 X113.246 Y123.52 E24.97626
G1 X113.195 Y123.463 E24.97881
G1 X113.121 Y123.249 E24.98634
G1 X113.038 Y123.145 E24.99076
G1 X112.939 Y122.885 E25.00002
G1 X112.803 Y122.709 E25.00741
G1 X112.63 Y122.441 E25.01802
G1 X112.601 Y122.395 E25.01959
G1 X112.601 Y122.227 E25.02365
M204 S5000
M205 X30 Y30
G0 F3600 X124.973 Y122.726
M204 S500
M205 X20 Y20
G1 F1800 X124.941 Y122.918 E25.03013
G1 X124.75 Y122.956 E25.0366
G1 X124.731 Y123.081 E25.04081
G1 X124.576 Y123.112 E25.04607
G1 X124.55 Y123.255 E25.0509
G1 X124.376 Y123.289 E25.0568
G1 X124.352 Y123.451 E25.06224
G1 X124.143 Y123.49 E25.06932
G1 X124.106 Y123.983 E25.08576
G1 X123.952 Y124.054 E25.0914
G1 X123.912 Y124.522 E25.10702
G1 X123.852 Y124.671 E25.11236
G1 X123.846 Y124.783 E25.11609
G1 X123.804 Y124.938 E25.12144
