;FLAVOR:Marlin
;TIME:329
;Filament used: 0.258527m
;Layer height: 0.2
;Generated with Cura_SteamEngine 3.4.1
M190 S60
M104 S195
M109 S195
M82 ;absolute extrusion mode
M75 ; Start Print Timer and Engage Fil Sensor M84 E ; Disable E Motor for probe accuracy on direct drive systems G28 ; home all axes G28 Z ; home Z to get more accurate Z position G29; EZABL mesh generation G4 S10; wait for heaters to recover 
 
M117 Purge extruder G92 E0 ; reset extruder G1 Z1.0 F3000 ; move z up little G1 X0.1 Y20 Z0.3 F5000.0 ; move to start-line position G1 X0.1 Y100.0 Z0.3 F1000.0 E15 ; draw 1st line G1 X0.4 Y100.0 Z0.3 F5000.0 ; move to side a little G1 X0.4 Y20 Z0.3 F1000.0 E30 ; draw 2nd line G92 E0 ; reset extruder G1 Z1.0 F3000 ; move z up little 
 
M117 Printing..... 
G92 E0
G1 F2400 E-5
;LAYER_COUNT:2
;LAYER:0
M107
M204 S5000
M205 X30 Y30
G0 F3600 X3.758 Y3.351 Z0.2
M204 S500
M205 X20 Y20
;TYPE:SKIRT
G1 F2400 E0
G1 F1800 X4.28 Y2.933 E0.02224
G1 X4.849 Y2.581 E0.0445
G1 X5.456 Y2.299 E0.06676
G1 X6.092 Y2.091 E0.08901
G1 X6.748 Y1.961 E0.11126
G1 X7.509 Y1.909 E0.13663
G1 X29.458 Y1.91 E0.86665
G1 X30.126 Y1.95 E0.88891
G1 X30.784 Y2.069 E0.91115
G1 X31.424 Y2.266 E0.93342
G1 X31.848 Y2.445 E0.94873
G1 X37.396 Y5.063 E1.15277
G1 X42.419 Y7.079 E1.33279
G1 X44.81 Y7.921 E1.4171
G1 X49.966 Y9.499 E1.59644
G1 X55.185 Y10.776 E1.77515
G1 X57.804 Y11.302 E1.864
G1 X60.34 Y11.735 E1.94956
G1 X65.699 Y12.419 E2.12925
G1 X71.035 Y12.797 E2.30717
G1 X75.076 Y12.882 E2.44161
G1 X147.656 Y12.842 E4.85563
G1 X152.992 Y12.54 E5.03339
G1 X158.298 Y11.937 E5.211
G1 X163.576 Y11.032 E5.38911
G1 X166.155 Y10.477 E5.47685
G1 X168.715 Y9.85 E5.56451
G1 X173.885 Y8.348 E5.74358
G1 X178.936 Y6.565 E5.92174
G1 X183.852 Y4.509 E6.09897
G1 X188.124 Y2.46 E6.25655
G1 X188.744 Y2.207 E6.27882
G1 X189.389 Y2.03 E6.30107
G1 X190.051 Y1.931 E6.32333
G1 X190.546 Y1.909 E6.33981
G1 X212.491 Y1.909 E7.06971
G1 X213.159 Y1.949 E7.09196
G1 X213.817 Y2.068 E7.1142
G1 X214.457 Y2.265 E7.13648
G1 X215.068 Y2.537 E7.15872
G1 X215.642 Y2.88 E7.18096
G1 X216.172 Y3.289 E7.20323
G1 X216.649 Y3.758 E7.22548
G1 X217.067 Y4.28 E7.24772
G1 X217.419 Y4.849 E7.26997
G1 X217.701 Y5.456 E7.29223
G1 X217.909 Y6.092 E7.31449
G1 X218.039 Y6.748 E7.33673
G1 X218.091 Y7.509 E7.3621
G1 X218.09 Y29.461 E8.09223
G1 X218.05 Y30.129 E8.11449
G1 X217.931 Y30.787 E8.13673
G1 X217.734 Y31.427 E8.159
G1 X217.523 Y31.916 E8.17671
G1 X216.199 Y34.63 E8.27715
G1 X214.041 Y39.598 E8.4573
G1 X213.086 Y42.071 E8.54547
G1 X212.225 Y44.517 E8.63172
G1 X210.65 Y49.67 E8.81094
G1 X209.369 Y54.899 E8.99
G1 X208.844 Y57.512 E9.07864
G1 X208.411 Y60.048 E9.16421
G1 X207.727 Y65.407 E9.3439
G1 X207.349 Y70.744 E9.52185
G1 X207.264 Y74.786 E9.65632
G1 X207.304 Y147.936 E12.0893
G1 X207.606 Y153.272 E12.26706
G1 X208.209 Y158.578 E12.44467
G1 X209.114 Y163.856 E12.62278
G1 X209.669 Y166.435 E12.71052
G1 X210.296 Y168.995 E12.79819
G1 X211.798 Y174.165 E12.97725
G1 X213.581 Y179.216 E13.15541
G1 X215.637 Y184.133 E13.33267
G1 X217.545 Y188.133 E13.48007
G1 X217.796 Y188.753 E13.50232
G1 X217.972 Y189.398 E13.52455
G1 X218.069 Y190.06 E13.54681
G1 X218.09 Y190.543 E13.56289
G1 X218.091 Y212.491 E14.29288
G1 X218.051 Y213.159 E14.31514
G1 X217.932 Y213.817 E14.33738
G1 X217.735 Y214.456 E14.35962
G1 X217.463 Y215.068 E14.38189
G1 X217.12 Y215.642 E14.40413
G1 X216.711 Y216.172 E14.4264
G1 X216.242 Y216.649 E14.44865
G1 X215.72 Y217.066 E14.47087
G1 X215.151 Y217.419 E14.49314
G1 X214.544 Y217.701 E14.5154
G1 X213.908 Y217.909 E14.53766
G1 X213.252 Y218.039 E14.5599
G1 X212.491 Y218.091 E14.58527
G1 X190.539 Y218.09 E15.3154
G1 X189.871 Y218.05 E15.33766
G1 X189.213 Y217.931 E15.3599
G1 X188.573 Y217.734 E15.38217
G1 X188.091 Y217.526 E15.39963
G1 X185.692 Y216.36 E15.48835
G1 X180.755 Y214.214 E15.66739
G1 X175.722 Y212.356 E15.84583
G1 X170.628 Y210.799 E16.023
G1 X165.383 Y209.513 E16.20262
G1 X162.838 Y209.004 E16.28894
G1 X157.559 Y208.177 E16.46666
G1 X152.183 Y207.644 E16.64634
G1 X149.592 Y207.497 E16.73266
G1 X145.506 Y207.411 E16.86859
G1 X71.777 Y207.451 E19.32083
G1 X66.441 Y207.753 E19.49859
G1 X61.134 Y208.356 E19.67623
G1 X55.879 Y209.257 E19.85357
G1 X50.669 Y210.456 E20.03138
G1 X48.132 Y211.153 E20.11889
G1 X43.02 Y212.797 E20.29749
G1 X38.038 Y214.716 E20.47506
G1 X31.795 Y217.579 E20.7035
G1 X31.172 Y217.821 E20.72573
G1 X30.524 Y217.987 E20.74797
G1 X29.86 Y218.075 E20.77025
G1 X29.462 Y218.089 E20.7835
G1 X7.51 Y218.091 E21.51362
G1 X6.842 Y218.051 E21.53588
G1 X6.183 Y217.932 E21.55816
G1 X5.544 Y217.735 E21.5804
G1 X4.933 Y217.463 E21.60264
G1 X4.358 Y217.12 E21.62491
G1 X3.828 Y216.712 E21.64716
G1 X3.351 Y216.243 E21.6694
G1 X2.934 Y215.72 E21.69165
G1 X2.581 Y215.151 E21.71392
G1 X2.299 Y214.545 E21.73615
G1 X2.091 Y213.909 E21.75841
G1 X1.961 Y213.252 E21.78069
G1 X1.909 Y212.491 E21.80606
G1 X1.91 Y190.539 E22.53618
G1 X1.95 Y189.871 E22.55844
G1 X2.069 Y189.213 E22.58068
G1 X2.266 Y188.573 E22.60295
G1 X2.474 Y188.091 E22.62041
G1 X3.648 Y185.676 E22.70972
G1 X5.803 Y180.716 E22.88959
G1 X6.772 Y178.2 E22.97927
G1 X7.628 Y175.774 E23.06483
G1 X9.202 Y170.625 E23.24391
G1 X10.483 Y165.396 E23.42297
G1 X11.006 Y162.793 E23.51128
G1 X11.443 Y160.238 E23.59749
G1 X12.126 Y154.888 E23.77688
G1 X12.504 Y149.552 E23.9548
G1 X12.589 Y145.506 E24.0894
G1 X12.549 Y71.776 E26.54167
G1 X12.247 Y66.44 E26.71943
G1 X11.644 Y61.134 E26.89704
G1 X10.739 Y55.856 E27.07515
G1 X10.184 Y53.277 E27.16289
G1 X9.557 Y50.717 E27.25055
G1 X8.055 Y45.547 E27.42962
G1 X6.272 Y40.496 E27.60778
G1 X4.212 Y35.569 E27.7854
G1 X2.449 Y31.851 E27.92226
G1 X2.199 Y31.23 E27.94452
G1 X2.025 Y30.584 E27.96677
G1 X1.929 Y29.922 E27.98902
G1 X1.909 Y29.452 E28.00467
G1 X1.909 Y7.509 E28.73449
G1 X1.949 Y6.841 E28.75675
G1 X2.068 Y6.183 E28.77899
G1 X2.265 Y5.543 E28.80126
G1 X2.537 Y4.932 E28.82351
G1 X2.88 Y4.358 E28.84575
G1 X3.289 Y3.828 E28.86802
G1 X3.758 Y3.351 E28.89026
M204 S5000
M205 X30 Y30
G0 F3600 X4.149 Y3.54
M204 S500
M205 X20 Y20
G1 F1800 X4.666 Y3.155 E28.9117
G1 X5.227 Y2.836 E28.93317
G1 X5.823 Y2.59 E28.95461
G1 X6.444 Y2.419 E28.97604
G1 X7.082 Y2.327 E28.99748
G1 X7.509 Y2.309 E29.01169
G1 X29.458 Y2.31 E29.74172
G1 X30.102 Y2.35 E29.76318
G1 X30.735 Y2.469 E29.7846
G1 X31.349 Y2.666 E29.80605
G1 X31.677 Y2.807 E29.81792
G1 X37.227 Y5.426 E30.02204
G1 X42.277 Y7.453 E30.20303
G1 X44.701 Y8.306 E30.2885
G1 X49.843 Y9.88 E30.46735
G1 X55.108 Y11.168 E30.64763
G1 X57.723 Y11.694 E30.73635
G1 X60.296 Y12.132 E30.82316
G1 X65.655 Y12.817 E31.00285
G1 X71.018 Y13.197 E31.18167
G1 X75.068 Y13.282 E31.3164
G1 X147.662 Y13.242 E33.73089
G1 X153.024 Y12.938 E33.90952
G1 X158.357 Y12.333 E34.08803
G1 X163.658 Y11.424 E34.26692
G1 X166.228 Y10.871 E34.35435
G1 X168.847 Y10.229 E34.44404
G1 X174.008 Y8.729 E34.6228
G1 X179.066 Y6.944 E34.8012
G1 X184.008 Y4.877 E34.97937
G1 X188.297 Y2.82 E35.13758
G1 X188.895 Y2.578 E35.15903
G1 X189.517 Y2.412 E35.18044
G1 X190.156 Y2.324 E35.2019
G1 X190.546 Y2.309 E35.21488
G1 X212.491 Y2.309 E35.94477
G1 X213.134 Y2.349 E35.9662
G1 X213.768 Y2.468 E35.98766
G1 X214.382 Y2.665 E36.0091
G1 X214.967 Y2.936 E36.03055
G1 X215.514 Y3.278 E36.052
G1 X216.014 Y3.684 E36.07342
G1 X216.46 Y4.149 E36.09485
G1 X216.845 Y4.666 E36.11629
G1 X217.164 Y5.227 E36.13776
G1 X217.41 Y5.823 E36.1592
G1 X217.581 Y6.444 E36.18063
G1 X217.673 Y7.082 E36.20207
G1 X217.691 Y7.509 E36.21628
G1 X217.69 Y29.461 E36.94641
G1 X217.65 Y30.105 E36.96787
G1 X217.531 Y30.738 E36.98929
G1 X217.334 Y31.352 E37.01074
G1 X217.164 Y31.741 E37.02486
G1 X215.83 Y34.475 E37.12604
G1 X213.672 Y39.443 E37.30619
G1 X212.712 Y41.931 E37.39489
G1 X211.848 Y44.387 E37.48148
G1 X210.263 Y49.567 E37.66165
G1 X208.977 Y54.816 E37.8414
G1 X208.452 Y57.431 E37.93011
G1 X208.014 Y60.004 E38.01692
G1 X207.329 Y65.363 E38.19661
G1 X206.949 Y70.727 E38.37547
G1 X206.864 Y74.778 E38.51023
G1 X206.904 Y147.942 E40.94368
G1 X207.208 Y153.304 E41.12231
G1 X207.813 Y158.637 E41.30082
G1 X208.722 Y163.938 E41.4797
G1 X209.275 Y166.508 E41.56714
G1 X209.917 Y169.127 E41.65683
G1 X211.417 Y174.288 E41.83559
G1 X213.202 Y179.346 E42.01398
G1 X215.273 Y184.297 E42.19248
G1 X217.184 Y188.305 E42.34016
G1 X217.424 Y188.903 E42.3616
G1 X217.59 Y189.526 E42.38304
G1 X217.676 Y190.165 E42.40449
G1 X217.69 Y190.543 E42.41707
G1 X217.691 Y212.491 E43.14706
G1 X217.651 Y213.134 E43.16849
G1 X217.532 Y213.768 E43.18994
G1 X217.335 Y214.382 E43.21139
G1 X217.064 Y214.967 E43.23283
G1 X216.722 Y215.513 E43.25426
G1 X216.316 Y216.014 E43.27571
G1 X215.851 Y216.46 E43.29714
G1 X215.334 Y216.845 E43.31858
G1 X214.773 Y217.163 E43.34003
G1 X214.177 Y217.41 E43.36149
G1 X213.556 Y217.581 E43.38291
G1 X212.918 Y217.673 E43.40435
G1 X212.491 Y217.691 E43.41856
G1 X190.539 Y217.69 E44.14869
G1 X189.895 Y217.65 E44.17015
G1 X189.262 Y217.531 E44.19157
G1 X188.648 Y217.334 E44.21302
G1 X188.265 Y217.167 E44.22692
G1 X185.829 Y215.983 E44.317
G1 X180.896 Y213.839 E44.4959
G1 X175.872 Y211.985 E44.67401
G1 X170.715 Y210.407 E44.85339
G1 X165.465 Y209.12 E45.03317
G1 X162.932 Y208.614 E45.11909
G1 X157.607 Y207.78 E45.29835
G1 X152.222 Y207.246 E45.47834
G1 X149.595 Y207.097 E45.56585
G1 X145.515 Y207.011 E45.70159
G1 X71.771 Y207.051 E48.15432
G1 X66.407 Y207.355 E48.33301
G1 X61.077 Y207.96 E48.51143
G1 X55.807 Y208.864 E48.68927
G1 X50.547 Y210.074 E48.86879
G1 X48.016 Y210.77 E48.95609
G1 X42.896 Y212.417 E49.13498
G1 X37.892 Y214.344 E49.31333
G1 X31.629 Y217.216 E49.54249
G1 X31.027 Y217.448 E49.56395
G1 X30.401 Y217.603 E49.5854
G1 X29.461 Y217.689 E49.6168
G1 X7.509 Y217.691 E50.34692
G1 X6.866 Y217.651 E50.36835
G1 X6.232 Y217.532 E50.38981
G1 X5.619 Y217.335 E50.41122
G1 X5.034 Y217.064 E50.43266
G1 X4.487 Y216.723 E50.4541
G1 X3.986 Y216.316 E50.47557
G1 X3.54 Y215.851 E50.497
G1 X3.155 Y215.334 E50.51844
G1 X2.837 Y214.773 E50.53989
G1 X2.59 Y214.178 E50.56132
G1 X2.419 Y213.556 E50.58277
G1 X2.327 Y212.918 E50.60421
G1 X2.309 Y212.491 E50.61843
G1 X2.31 Y190.539 E51.34855
G1 X2.35 Y189.895 E51.37001
G1 X2.469 Y189.262 E51.39144
G1 X2.666 Y188.648 E51.41288
G1 X2.833 Y188.265 E51.42678
G1 X4.021 Y185.821 E51.51716
G1 X6.181 Y180.85 E51.69743
G1 X7.136 Y178.371 E51.78579
G1 X8.005 Y175.905 E51.87275
G1 X9.589 Y170.728 E52.05282
G1 X10.875 Y165.479 E52.23257
G1 X11.398 Y162.874 E52.32094
G1 X11.841 Y160.282 E52.4084
G1 X12.524 Y154.932 E52.58779
G1 X12.904 Y149.568 E52.76664
G1 X12.989 Y145.515 E52.90147
G1 X12.949 Y71.77 E55.35424
G1 X12.645 Y66.408 E55.53287
G1 X12.04 Y61.075 E55.71138
G1 X11.131 Y55.774 E55.89027
G1 X10.578 Y53.204 E55.9777
G1 X9.936 Y50.585 E56.06739
G1 X8.436 Y45.424 E56.24615
G1 X6.651 Y40.366 E56.42455
G1 X4.577 Y35.406 E56.60336
G1 X2.81 Y31.679 E56.74055
G1 X2.571 Y31.081 E56.76197
G1 X2.407 Y30.457 E56.78343
G1 X2.322 Y29.818 E56.80487
G1 X2.309 Y29.452 E56.81705
G1 X2.309 Y7.509 E57.54687
G1 X2.349 Y6.866 E57.5683
G1 X2.468 Y6.232 E57.58976
G1 X2.665 Y5.618 E57.6112
G1 X2.936 Y5.033 E57.63265
G1 X3.278 Y4.486 E57.6541
G1 X3.684 Y3.986 E57.67553
G1 X4.149 Y3.54 E57.69696
M204 S5000
M205 X30 Y30
G1 F2400 E52.69696
G0 F3600 X8.114 Y6.835
G0 X8.114 Y8.114
G0 X28.464 Y28.464
M204 S500
M205 X20 Y20
;TYPE:WALL-INNER
G1 F2400 E57.69696
G1 F1800 X8.5 Y28.464 E58.36096
G1 X8.5 Y8.5 E59.02497
G1 X28.464 Y8.5 E59.68897
G1 X28.464 Y28.464 E60.35298
M204 S5000
M205 X30 Y30
G1 F2400 E55.35298
G0 F3600 X28.85 Y28.85
G0 X30.129 Y28.85
G0 X99.632 Y98.353
G0 X99.632 Y99.632
G0 X119.982 Y119.982
M204 S500
M205 X20 Y20
G1 F2400 E60.35298
G1 F1800 X100.018 Y119.982 E61.01698
G1 X100.018 Y100.018 E61.68099
G1 X119.982 Y100.018 E62.34499
G1 X119.982 Y119.982 E63.009
M204 S5000
M205 X30 Y30
G1 F2400 E58.009
G0 F3600 X120.368 Y120.368
G0 X121.647 Y120.368
G0 X191.15 Y189.871
G0 X191.15 Y191.15
G0 X211.5 Y211.5
M204 S500
M205 X20 Y20
G1 F2400 E63.009
G1 F1800 X191.536 Y211.5 E63.673
G1 X191.536 Y191.536 E64.33701
G1 X211.5 Y191.536 E65.00101
G1 X211.5 Y211.5 E65.66502
M204 S5000
M205 X30 Y30
G1 F2400 E60.66502
G0 F3600 X191.156 Y211.5
G0 X189.871 Y211.5
G0 X30.129 Y211.5
G0 X28.844 Y211.5
G0 X28.464 Y211.5
M204 S500
M205 X20 Y20
G1 F2400 E65.66502
G1 F1800 X8.5 Y211.5 E66.32903
G1 X8.5 Y191.536 E66.99303
G1 X28.464 Y191.536 E67.65704
G1 X28.464 Y211.5 E68.32104
M204 S5000
M205 X30 Y30
G1 F2400 E63.32104
G0 F3600 X28.85 Y191.15
G0 X28.85 Y189.871
G0 X98.357 Y98.861
G0 X98.764 Y98.454
G0 X189.871 Y28.85
G0 X191.15 Y28.85
G0 X211.5 Y28.464
M204 S500
M205 X20 Y20
G1 F2400 E68.32104
G1 F1800 X191.536 Y28.464 E68.98505
G1 X191.536 Y8.5 E69.64905
G1 X211.5 Y8.5 E70.31306
G1 X211.5 Y28.464 E70.97706
M204 S5000
M205 X30 Y30
G0 F3600 X211.9 Y28.864
M204 S500
M205 X20 Y20
G1 F1800 X191.136 Y28.864 E71.66768
G1 X191.136 Y8.1 E72.35829
G1 X211.9 Y8.1 E73.0489
G1 X211.9 Y28.864 E73.73952
M204 S5000
M205 X30 Y30
G1 F2400 E68.73952
G0 F3600 X211.83 Y28.794
G0 X191.15 Y28.85
G0 X189.871 Y28.85
G0 X120.368 Y98.353
G0 X120.368 Y99.632
G0 X120.312 Y120.312
G0 X120.382 Y120.382
M204 S500
M205 X20 Y20
G1 F2400 E73.73952
G1 F1800 X99.618 Y120.382 E74.43013
G1 X99.618 Y99.618 E75.12074
G1 X120.382 Y99.618 E75.81136
G1 X120.382 Y120.382 E76.50197
M204 S5000
M205 X30 Y30
G1 F2400 E71.50197
G0 F3600 X120.312 Y120.312
G0 X120.368 Y120.368
G0 X121.647 Y120.368
G0 X191.15 Y189.871
G0 X191.15 Y191.15
G0 X211.83 Y211.83
G0 X211.9 Y211.9
M204 S500
M205 X20 Y20
G1 F2400 E76.50197
G1 F1800 X191.136 Y211.9 E77.19258
G1 X191.136 Y191.136 E77.8832
G1 X211.9 Y191.136 E78.57381
G1 X211.9 Y211.9 E79.26442
M204 S5000
M205 X30 Y30
G1 F2400 E74.26442
G0 F3600 X211.83 Y211.83
G0 X191.156 Y211.83
G0 X189.871 Y211.83
G0 X30.129 Y211.83
G0 X28.844 Y211.83
G0 X28.794 Y211.83
G0 X28.864 Y211.9
M204 S500
M205 X20 Y20
G1 F2400 E79.26442
G1 F1800 X8.1 Y211.9 E79.95504
G1 X8.1 Y191.136 E80.64565
G1 X28.864 Y191.136 E81.33626
G1 X28.864 Y211.9 E82.02688
M204 S5000
M205 X30 Y30
G1 F2400 E77.02688
G0 F3600 X28.794 Y211.83
G0 X28.794 Y191.156
G0 X28.794 Y189.871
G0 X28.794 Y30.129
G0 X28.794 Y28.844
G0 X28.794 Y28.794
G0 X28.864 Y28.864
M204 S500
M205 X20 Y20
G1 F2400 E82.02688
G1 F1800 X8.1 Y28.864 E82.71749
G1 X8.1 Y8.1 E83.4081
G1 X28.864 Y8.1 E84.09872
G1 X28.864 Y28.864 E84.78933
M204 S5000
M205 X30 Y30
G0 F3600 X28.794 Y28.794
G0 X8.17 Y28.794
G0 X7.7 Y29.264
M204 S500
M205 X20 Y20
;TYPE:WALL-OUTER
G1 F1800 X7.7 Y7.7 E85.50655
G1 X29.264 Y7.7 E86.22377
G1 X29.264 Y29.264 E86.941
G1 X7.7 Y29.264 E87.65822
M204 S5000
M205 X30 Y30
G0 F3600 X7.7 Y29.064
G1 F2400 E82.65822
G0 F3600 X8.17 Y28.794
G0 X28.85 Y28.85
G0 X30.129 Y28.85
G0 X99.632 Y98.353
G0 X99.632 Y99.632
G0 X99.688 Y120.312
G0 X99.218 Y120.782
M204 S500
M205 X20 Y20
G1 F2400 E87.65822
G1 F1800 X99.218 Y99.218 E88.37544
G1 X120.782 Y99.218 E89.09266
G1 X120.782 Y120.782 E89.80988
G1 X99.218 Y120.782 E90.5271
M204 S5000
M205 X30 Y30
G0 F3600 X99.218 Y120.582
G1 F2400 E85.5271
G0 F3600 X99.688 Y120.312
G0 X99.632 Y120.368
G0 X98.353 Y120.368
G0 X28.85 Y189.871
G0 X28.85 Y191.15
G0 X8.17 Y211.83
G0 X7.7 Y212.3
M204 S500
M205 X20 Y20
G1 F2400 E90.5271
G1 F1800 X7.7 Y190.736 E91.24433
G1 X29.264 Y190.736 E91.96155
G1 X29.264 Y212.3 E92.67877
G1 X7.7 Y212.3 E93.39599
M204 S5000
M205 X30 Y30
G0 F3600 X7.7 Y212.1
G1 F2400 E88.39599
G0 F3600 X8.17 Y211.83
G0 X28.844 Y191.206
G0 X30.129 Y191.206
G0 X189.871 Y191.206
G0 X191.156 Y191.206
G0 X211.83 Y191.206
G0 X212.3 Y190.736
M204 S500
M205 X20 Y20
G1 F2400 E93.39599
G1 F1800 X212.3 Y212.3 E94.11321
G1 X190.736 Y212.3 E94.83043
G1 X190.736 Y190.736 E95.54765
G1 X212.3 Y190.736 E96.26488
M204 S5000
M205 X30 Y30
G0 F3600 X212.3 Y190.936
G1 F2400 E91.26488
G0 F3600 X211.83 Y191.206
G0 X191.206 Y191.156
G0 X191.206 Y189.871
G0 X191.206 Y30.129
G0 X191.206 Y28.844
G0 X191.206 Y8.17
G0 X190.736 Y7.7
M204 S500
M205 X20 Y20
G1 F2400 E96.26488
G1 F1800 X212.3 Y7.7 E96.9821
G1 X212.3 Y29.264 E97.69932
G1 X190.736 Y29.264 E98.41654
G1 X190.736 Y7.7 E99.13376
M204 S5000
M205 X30 Y30
G0 F3600 X190.936 Y7.7
G0 X191.206 Y8.17
G0 X191.926 Y8.89
M204 S500
M205 X20 Y20
;TYPE:SKIN
G1 F1800 X211.11 Y8.89 E99.77182
G1 X211.11 Y28.074 E100.40989
G1 X191.926 Y28.074 E101.04795
