; G-Code generated by Simplify3D(R) Version 4.0.1
; Aug 19, 2018 at 10:16:00 AM
; Settings Summary
;   processName,Process1
;   applyToModels,MeridaBuckleV3_-_MedallionBase
;   profileName,Ender 3 (modified)
;   profileVersion,2018-08-17 22:18:50
;   baseProfile,Wanhao Duplicator i3 (modified)
;   printMaterial,PLA
;   printQuality,Medium
;   printExtruders,
;   extruderName,Primary Extruder
;   extruderToolheadNumber,0
;   extruderDiameter,0.4
;   extruderAutoWidth,0
;   extruderWidth,0.4
;   extrusionMultiplier,0.97
;   extruderUseRetract,1
;   extruderRetractionDistance,4
;   extruderExtraRestartDistance,0
;   extruderRetractionZLift,0
;   extruderRetractionSpeed,3900
;   extruderUseCoasting,0
;   extruderCoastingDistance,0.1
;   extruderUseWipe,1
;   extruderWipeDistance,4
;   primaryExtruder,0
;   layerHeight,0.2
;   topSolidLayers,3
;   bottomSolidLayers,3
;   perimeterOutlines,3
;   printPerimetersInsideOut,1
;   startPointOption,3
;   startPointOriginX,220
;   startPointOriginY,0
;   sequentialIslands,0
;   spiralVaseMode,0
;   firstLayerHeightPercentage,80
;   firstLayerWidthPercentage,100
;   firstLayerUnderspeed,0.3
;   useRaft,0
;   raftExtruder,0
;   raftTopLayers,3
;   raftBaseLayers,2
;   raftOffset,3
;   raftSeparationDistance,0.14
;   raftTopInfill,100
;   aboveRaftSpeedMultiplier,0.3
;   useSkirt,1
;   skirtExtruder,0
;   skirtLayers,1
;   skirtOutlines,3
;   skirtOffset,3
;   usePrimePillar,0
;   primePillarExtruder,999
;   primePillarWidth,12
;   primePillarLocation,7
;   primePillarSpeedMultiplier,1
;   useOozeShield,0
;   oozeShieldExtruder,999
;   oozeShieldOffset,2
;   oozeShieldOutlines,1
;   oozeShieldSidewallShape,1
;   oozeShieldSidewallAngle,30
;   oozeShieldSpeedMultiplier,1
;   infillExtruder,0
;   internalInfillPattern,Grid
;   externalInfillPattern,Rectilinear
;   infillPercentage,25
;   outlineOverlapPercentage,15
;   infillExtrusionWidthPercentage,100
;   minInfillLength,5
;   infillLayerInterval,1
;   internalInfillAngles,45,-45
;   overlapInternalInfillAngles,1
;   externalInfillAngles,45,-45
;   generateSupport,0
;   supportExtruder,0
;   supportInfillPercentage,30
;   supportExtraInflation,1
;   supportBaseLayers,0
;   denseSupportExtruder,0
;   denseSupportLayers,0
;   denseSupportInfillPercentage,100
;   supportLayerInterval,1
;   supportHorizontalPartOffset,0.3
;   supportUpperSeparationLayers,1
;   supportLowerSeparationLayers,1
;   supportType,1
;   supportGridSpacing,99
;   maxOverhangAngle,50
;   supportAngles,0,45
;   temperatureName,Primary Extruder,Heated Bed
;   temperatureNumber,0,0
;   temperatureSetpointCount,2,1
;   temperatureSetpointLayers,1,2,1
;   temperatureSetpointTemperatures,220,205,60
;   temperatureStabilizeAtStartup,1,1
;   temperatureHeatedBed,0,1
;   temperatureRelayBetweenLayers,0,0
;   temperatureRelayBetweenLoops,0,0
;   fanLayers,1,2
;   fanSpeeds,0,100
;   blipFanToFullPower,0
;   adjustSpeedForCooling,1
;   minSpeedLayerTime,15
;   minCoolingSpeedSlowdown,50
;   increaseFanForCooling,0
;   minFanLayerTime,20
;   maxCoolingFanSpeed,100
;   increaseFanForBridging,0
;   bridgingFanSpeed,100
;   use5D,1
;   relativeEdistances,0
;   allowEaxisZeroing,1
;   independentExtruderAxes,0
;   includeM10123,0
;   stickySupport,1
;   applyToolheadOffsets,0
;   gcodeXoffset,0
;   gcodeYoffset,0
;   gcodeZoffset,0
;   overrideMachineDefinition,1
;   machineTypeOverride,0
;   strokeXoverride,220
;   strokeYoverride,220
;   strokeZoverride,250
;   originOffsetXoverride,0
;   originOffsetYoverride,0
;   originOffsetZoverride,0
;   homeXdirOverride,-1
;   homeYdirOverride,-1
;   homeZdirOverride,-1
;   flipXoverride,1
;   flipYoverride,-1
;   flipZoverride,1
;   toolheadOffsets,0,0|0,0|0,0|0,0|0,0|0,0
;   overrideFirmwareConfiguration,1
;   firmwareTypeOverride,RepRap (Marlin/Repetier/Sprinter)
;   GPXconfigOverride,r2
;   baudRateOverride,115200
;   overridePrinterModels,1
;   printerModelsOverride
;   startingGcode,M75 ; Start Print Timer and Engage Fil Sensor ,M84 E ; Disable E Motor for probe accuracy on direct drive systems ,G28 ; home all axes ,G28 Z ; home Z to get more accurate Z position ,G29; EZABL mesh generation ,G4 S10; wait for heaters to recover , ,M117 Purge extruder ,G92 E0 ; reset extruder ,G1 Z1.0 F3000 ; move z up little ,G1 X0.1 Y20 Z0.3 F5000.0 ; move to start-line position,G1 X0.1 Y100.0 Z0.3 F1000.0 E15 ; draw 1st line ,G1 X0.4 Y100.0 Z0.3 F5000.0 ; move to side a little,G1 X0.4 Y20 Z0.3 F1000.0 E30 ; draw 2nd line ,G92 E0 ; reset extruder ,G1 Z1.0 F3000 ; move z up little , ,M117 Printing..... ,
;   layerChangeGcode,
;   retractionGcode,
;   toolChangeGcode,
;   endingGcode,G1 Y200 X0,M104 S0 ; turn off extruder,M140 S0 ; turn off bed,M106 S0 ; turn off fan,M84 ; disable motors
;   exportFileFormat,gcode
;   celebration,0
;   celebrationSong,Star Wars
;   postProcessing,curl -k -H "X-Api-Key: 1DC09949E057451CA27DA30E29CCEC3B" -F "select=false" -F "print=false" -F "file=@[output_filepath]" "http://192.168.1.94/api/files/local" {STRIP "; postProcessing"}
;   defaultSpeed,3000
;   outlineUnderspeed,0.8
;   solidInfillUnderspeed,0.8
;   supportUnderspeed,0.5
;   rapidXYspeed,6000
;   rapidZspeed,1920
;   minBridgingArea,25
;   bridgingExtraInflation,0
;   bridgingExtrusionMultiplier,1.2
;   bridgingSpeedMultiplier,0.8
;   useFixedBridgingAngle,0
;   fixedBridgingAngle,0
;   applyBridgingToPerimeters,0
;   filamentDiameters,1.74|1.73|1.73|1.73|1.73|1.73
;   filamentPricesPerKg,18|18|18|18|18|18
;   filamentDensities,1.25|1.25|1.25|1.25|1.25|1.25
;   useMinPrintHeight,0
;   minPrintHeight,23
;   useMaxPrintHeight,0
;   maxPrintHeight,23.76
;   useDiaphragm,0
;   diaphragmLayerInterval,20
;   robustSlicing,1
;   mergeAllIntoSolid,0
;   onlyRetractWhenCrossingOutline,0
;   retractBetweenLayers,0
;   useRetractionMinTravel,1
;   retractionMinTravel,3
;   retractWhileWiping,0
;   onlyWipeOutlines,0
;   avoidCrossingOutline,1
;   maxMovementDetourFactor,400
;   toolChangeRetractionDistance,12
;   toolChangeExtraRestartDistance,-0.5
;   toolChangeRetractionSpeed,600
;   externalThinWallType,1
;   internalThinWallType,1
;   thinWallAllowedOverlapPercentage,50
;   singleExtrusionMinLength,1
;   singleExtrusionMinPrintingWidthPercentage,50
;   singleExtrusionMaxPrintingWidthPercentage,200
;   singleExtrusionEndpointExtension,0.2
;   horizontalSizeCompensation,0
G90
M82
M106 S0
M140 S60
M190 S60
M104 S220 T0
M109 S220 T0
M75 ; Start Print Timer and Engage Fil Sensor 
M84 E ; Disable E Motor for probe accuracy on direct drive systems 
G28 ; home all axes 
G28 Z ; home Z to get more accurate Z position 
G29; EZABL mesh generation 
G4 S10; wait for heaters to recover 
 
M117 Purge extruder 
G92 E0 ; reset extruder 
G1 Z1.0 F3000 ; move z up little 
G1 X0.1 Y20 Z0.3 F5000.0 ; move to start-line position
G1 X0.1 Y100.0 Z0.3 F1000.0 E15 ; draw 1st line 
G1 X0.4 Y100.0 Z0.3 F5000.0 ; move to side a little
G1 X0.4 Y20 Z0.3 F1000.0 E30 ; draw 2nd line 
G92 E0 ; reset extruder 
G1 Z1.0 F3000 ; move z up little 
 
M117 Printing..... 
G92 E0
G1 E-4.0000 F3900
G1 Z0.160 F1920
; process Process1
; layer 1, Z = 0.160
T0
; tool H0.200 W0.400
; skirt
G1 X72.373 Y75.455 F6000
G1 E0.0000 F1170
G92 E0
G1 X73.846 Y73.916 E0.0695 F900
G1 X73.854 Y73.908 E0.0699
G1 X73.908 Y73.854 E0.0724
G1 X73.916 Y73.846 E0.0727
G1 X75.455 Y72.373 E0.1423
G1 X75.463 Y72.366 E0.1426
G1 X75.519 Y72.314 E0.1451
G1 X75.527 Y72.307 E0.1455
G1 X77.129 Y70.902 E0.2150
G1 X77.137 Y70.895 E0.2153
G1 X77.196 Y70.846 E0.2178
G1 X77.204 Y70.839 E0.2182
G1 X78.866 Y69.505 E0.2877
G1 X78.874 Y69.499 E0.2881
G1 X78.935 Y69.452 E0.2906
G1 X78.943 Y69.446 E0.2909
G1 X80.662 Y68.186 E0.3604
G1 X80.670 Y68.180 E0.3608
G1 X80.733 Y68.136 E0.3633
G1 X80.742 Y68.130 E0.3636
G1 X82.513 Y66.946 E0.4332
G1 X82.523 Y66.940 E0.4335
G1 X82.587 Y66.899 E0.4360
G1 X82.596 Y66.893 E0.4364
G1 X84.418 Y65.788 E0.5059
G1 X84.427 Y65.782 E0.5063
G1 X84.493 Y65.744 E0.5088
G1 X84.503 Y65.739 E0.5091
G1 X86.370 Y64.714 E0.5786
G1 X86.380 Y64.709 E0.5790
G1 X86.448 Y64.674 E0.5815
G1 X86.457 Y64.669 E0.5818
G1 X88.368 Y63.727 E0.6514
G1 X88.378 Y63.722 E0.6517
G1 X88.447 Y63.690 E0.6542
G1 X88.457 Y63.685 E0.6546
G1 X90.407 Y62.827 E0.7241
G1 X90.417 Y62.823 E0.7245
G1 X90.488 Y62.794 E0.7269
G1 X90.498 Y62.790 E0.7273
G1 X92.484 Y62.017 E0.7968
G1 X92.494 Y62.014 E0.7972
G1 X92.566 Y61.987 E0.7997
G1 X92.576 Y61.984 E0.8000
G1 X94.593 Y61.299 E0.8696
G1 X94.604 Y61.296 E0.8699
G1 X94.676 Y61.273 E0.8724
G1 X94.687 Y61.270 E0.8728
G1 X96.732 Y60.673 E0.9423
G1 X96.743 Y60.670 E0.9426
G1 X96.816 Y60.651 E0.9451
G1 X96.827 Y60.648 E0.9455
G1 X98.896 Y60.142 E1.0150
G1 X98.907 Y60.139 E1.0154
G1 X98.982 Y60.123 E1.0179
G1 X98.992 Y60.120 E1.0182
G1 X101.082 Y59.705 E1.0877
G1 X101.092 Y59.703 E1.0881
G1 X101.168 Y59.689 E1.0906
G1 X101.178 Y59.688 E1.0909
G1 X103.284 Y59.364 E1.1605
G1 X103.295 Y59.362 E1.1608
G1 X103.371 Y59.352 E1.1633
G1 X103.381 Y59.351 E1.1637
G1 X105.499 Y59.119 E1.2332
G1 X105.510 Y59.118 E1.2336
G1 X105.586 Y59.111 E1.2360
G1 X105.597 Y59.110 E1.2364
G1 X107.723 Y58.971 E1.3059
G1 X107.734 Y58.970 E1.3063
G1 X107.810 Y58.967 E1.3088
G1 X107.821 Y58.967 E1.3091
G1 X109.951 Y58.920 E1.3787
G1 X109.962 Y58.920 E1.3790
G1 X110.038 Y58.920 E1.3815
G1 X110.049 Y58.920 E1.3819
G1 X112.179 Y58.967 E1.4514
G1 X112.190 Y58.967 E1.4517
G1 X112.266 Y58.970 E1.4542
G1 X112.277 Y58.971 E1.4546
G1 X114.403 Y59.110 E1.5241
G1 X114.414 Y59.111 E1.5245
G1 X114.490 Y59.118 E1.5270
G1 X114.501 Y59.119 E1.5273
G1 X116.619 Y59.351 E1.5968
G1 X116.629 Y59.352 E1.5972
G1 X116.705 Y59.362 E1.5997
G1 X116.716 Y59.364 E1.6001
G1 X118.822 Y59.688 E1.6696
G1 X118.832 Y59.689 E1.6699
G1 X118.908 Y59.703 E1.6724
G1 X118.918 Y59.705 E1.6728
G1 X121.008 Y60.120 E1.7423
G1 X121.018 Y60.123 E1.7427
G1 X121.093 Y60.139 E1.7452
G1 X121.104 Y60.142 E1.7455
G1 X123.173 Y60.648 E1.8150
G1 X123.184 Y60.651 E1.8154
G1 X123.257 Y60.670 E1.8179
G1 X123.268 Y60.673 E1.8182
G1 X125.313 Y61.270 E1.8878
G1 X125.324 Y61.273 E1.8881
G1 X125.396 Y61.296 E1.8906
G1 X125.407 Y61.299 E1.8910
G1 X127.424 Y61.984 E1.9605
G1 X127.434 Y61.987 E1.9608
G1 X127.506 Y62.014 E1.9633
G1 X127.516 Y62.017 E1.9637
G1 X129.502 Y62.790 E2.0332
G1 X129.512 Y62.794 E2.0336
G1 X129.583 Y62.823 E2.0361
G1 X129.593 Y62.827 E2.0364
G1 X131.543 Y63.685 E2.1060
G1 X131.553 Y63.690 E2.1063
G1 X131.622 Y63.722 E2.1088
G1 X131.632 Y63.727 E2.1092
G1 X133.543 Y64.669 E2.1787
G1 X133.552 Y64.674 E2.1790
G1 X133.620 Y64.709 E2.1815
G1 X133.630 Y64.714 E2.1819
G1 X135.497 Y65.739 E2.2514
G1 X135.507 Y65.744 E2.2518
G1 X135.573 Y65.783 E2.2543
G1 X135.582 Y65.788 E2.2546
G1 X137.404 Y66.893 E2.3241
G1 X137.413 Y66.899 E2.3245
G1 X137.478 Y66.940 E2.3270
G1 X137.487 Y66.946 E2.3273
G1 X139.258 Y68.130 E2.3969
G1 X139.267 Y68.136 E2.3972
G1 X139.330 Y68.180 E2.3997
G1 X139.338 Y68.186 E2.4001
G1 X141.057 Y69.446 E2.4696
G1 X141.065 Y69.452 E2.4700
G1 X141.126 Y69.499 E2.4725
G1 X141.134 Y69.505 E2.4728
G1 X142.796 Y70.839 E2.5423
G1 X142.805 Y70.846 E2.5427
G1 X142.863 Y70.895 E2.5452
G1 X142.871 Y70.902 E2.5455
G1 X144.473 Y72.307 E2.6151
G1 X144.481 Y72.314 E2.6154
G1 X144.537 Y72.365 E2.6179
G1 X144.545 Y72.373 E2.6183
G1 X146.084 Y73.846 E2.6878
G1 X146.092 Y73.854 E2.6881
G1 X146.146 Y73.908 E2.6906
G1 X146.154 Y73.916 E2.6910
G1 X147.627 Y75.455 E2.7605
G1 X147.634 Y75.463 E2.7609
G1 X147.686 Y75.519 E2.7634
G1 X147.693 Y75.527 E2.7637
G1 X149.098 Y77.129 E2.8332
G1 X149.105 Y77.137 E2.8336
G1 X149.154 Y77.196 E2.8361
G1 X149.161 Y77.204 E2.8365
G1 X150.495 Y78.866 E2.9060
G1 X150.501 Y78.874 E2.9063
G1 X150.548 Y78.935 E2.9088
G1 X150.554 Y78.943 E2.9092
G1 X151.814 Y80.662 E2.9787
G1 X151.820 Y80.670 E2.9791
G1 X151.864 Y80.733 E2.9816
G1 X151.870 Y80.742 E2.9819
G1 X153.054 Y82.513 E3.0514
G1 X153.060 Y82.523 E3.0518
G1 X153.101 Y82.587 E3.0543
G1 X153.107 Y82.596 E3.0546
G1 X154.212 Y84.418 E3.1242
G1 X154.217 Y84.427 E3.1245
G1 X154.256 Y84.493 E3.1270
G1 X154.261 Y84.503 E3.1274
G1 X155.286 Y86.370 E3.1969
G1 X155.291 Y86.380 E3.1973
G1 X155.326 Y86.448 E3.1997
G1 X155.331 Y86.457 E3.2001
G1 X156.273 Y88.368 E3.2696
G1 X156.278 Y88.378 E3.2700
G1 X156.310 Y88.447 E3.2725
G1 X156.315 Y88.457 E3.2728
G1 X157.173 Y90.407 E3.3424
G1 X157.177 Y90.417 E3.3427
G1 X157.206 Y90.488 E3.3452
G1 X157.210 Y90.498 E3.3456
G1 X157.983 Y92.483 E3.4151
G1 X157.986 Y92.494 E3.4154
G1 X158.013 Y92.565 E3.4179
G1 X158.016 Y92.576 E3.4183
G1 X158.701 Y94.593 E3.4878
G1 X158.704 Y94.604 E3.4882
G1 X158.727 Y94.676 E3.4907
G1 X158.731 Y94.687 E3.4910
G1 X159.327 Y96.732 E3.5605
G1 X159.330 Y96.743 E3.5609
G1 X159.349 Y96.816 E3.5634
G1 X159.352 Y96.827 E3.5637
G1 X159.858 Y98.896 E3.6333
G1 X159.861 Y98.907 E3.6336
G1 X159.877 Y98.982 E3.6361
G1 X159.880 Y98.992 E3.6365
G1 X160.295 Y101.082 E3.7060
G1 X160.297 Y101.092 E3.7064
G1 X160.311 Y101.168 E3.7089
G1 X160.312 Y101.178 E3.7092
G1 X160.636 Y103.284 E3.7787
G1 X160.638 Y103.295 E3.7791
G1 X160.648 Y103.370 E3.7816
G1 X160.649 Y103.381 E3.7819
G1 X160.881 Y105.499 E3.8515
G1 X160.882 Y105.510 E3.8518
G1 X160.889 Y105.586 E3.8543
G1 X160.890 Y105.597 E3.8547
G1 X161.029 Y107.723 E3.9242
G1 X161.030 Y107.734 E3.9246
G1 X161.033 Y107.810 E3.9270
G1 X161.033 Y107.821 E3.9274
G1 X161.080 Y109.951 E3.9969
G1 X161.080 Y109.962 E3.9973
G1 X161.080 Y110.038 E3.9998
G1 X161.080 Y110.049 E4.0001
G1 X161.033 Y112.179 E4.0697
G1 X161.033 Y112.190 E4.0700
G1 X161.030 Y112.266 E4.0725
G1 X161.029 Y112.277 E4.0729
G1 X160.890 Y114.403 E4.1424
G1 X160.889 Y114.414 E4.1427
G1 X160.882 Y114.490 E4.1452
G1 X160.881 Y114.501 E4.1456
G1 X160.649 Y116.619 E4.2151
G1 X160.648 Y116.629 E4.2155
G1 X160.638 Y116.705 E4.2180
G1 X160.636 Y116.716 E4.2183
G1 X160.312 Y118.822 E4.2878
G1 X160.311 Y118.832 E4.2882
G1 X160.297 Y118.908 E4.2907
G1 X160.295 Y118.918 E4.2910
G1 X159.880 Y121.008 E4.3606
G1 X159.877 Y121.018 E4.3609
G1 X159.861 Y121.093 E4.3634
G1 X159.858 Y121.104 E4.3638
G1 X159.352 Y123.173 E4.4333
G1 X159.349 Y123.184 E4.4337
G1 X159.330 Y123.257 E4.4361
G1 X159.327 Y123.268 E4.4365
G1 X158.731 Y125.313 E4.5060
G1 X158.727 Y125.324 E4.5064
G1 X158.704 Y125.396 E4.5089
G1 X158.701 Y125.407 E4.5092
G1 X158.016 Y127.424 E4.5788
G1 X158.013 Y127.435 E4.5791
G1 X157.986 Y127.506 E4.5816
G1 X157.983 Y127.517 E4.5820
G1 X157.210 Y129.502 E4.6515
G1 X157.206 Y129.512 E4.6518
G1 X157.177 Y129.583 E4.6543
G1 X157.173 Y129.593 E4.6547
G1 X156.315 Y131.543 E4.7242
G1 X156.310 Y131.553 E4.7246
G1 X156.278 Y131.622 E4.7271
G1 X156.273 Y131.632 E4.7274
G1 X155.331 Y133.542 E4.7969
G1 X155.326 Y133.552 E4.7973
G1 X155.291 Y133.620 E4.7998
G1 X155.286 Y133.630 E4.8002
G1 X154.261 Y135.497 E4.8697
G1 X154.256 Y135.507 E4.8700
G1 X154.217 Y135.573 E4.8725
G1 X154.212 Y135.582 E4.8729
G1 X153.107 Y137.404 E4.9424
G1 X153.101 Y137.413 E4.9428
G1 X153.060 Y137.477 E4.9453
G1 X153.054 Y137.487 E4.9456
G1 X151.870 Y139.258 E5.0151
G1 X151.864 Y139.267 E5.0155
G1 X151.820 Y139.330 E5.0180
G1 X151.814 Y139.338 E5.0183
G1 X150.554 Y141.057 E5.0879
G1 X150.548 Y141.065 E5.0882
G1 X150.501 Y141.126 E5.0907
G1 X150.494 Y141.134 E5.0911
G1 X149.161 Y142.796 E5.1606
G1 X149.154 Y142.804 E5.1610
G1 X149.105 Y142.863 E5.1634
G1 X149.098 Y142.871 E5.1638
G1 X147.693 Y144.473 E5.2333
G1 X147.686 Y144.481 E5.2337
G1 X147.634 Y144.537 E5.2362
G1 X147.627 Y144.545 E5.2365
G1 X146.154 Y146.084 E5.3061
G1 X146.146 Y146.092 E5.3064
G1 X146.092 Y146.146 E5.3089
G1 X146.084 Y146.154 E5.3093
G1 X144.545 Y147.627 E5.3788
G1 X144.537 Y147.634 E5.3791
G1 X144.481 Y147.686 E5.3816
G1 X144.473 Y147.693 E5.3820
G1 X142.871 Y149.098 E5.4515
G1 X142.863 Y149.105 E5.4519
G1 X142.804 Y149.154 E5.4544
G1 X142.796 Y149.161 E5.4547
G1 X141.134 Y150.494 E5.5242
G1 X141.126 Y150.501 E5.5246
G1 X141.065 Y150.548 E5.5271
G1 X141.057 Y150.554 E5.5274
G1 X139.338 Y151.814 E5.5970
G1 X139.330 Y151.820 E5.5973
G1 X139.267 Y151.864 E5.5998
G1 X139.258 Y151.870 E5.6002
G1 X137.487 Y153.054 E5.6697
G1 X137.477 Y153.060 E5.6701
G1 X137.413 Y153.101 E5.6726
G1 X137.404 Y153.107 E5.6729
