; G-Code generated by Simplify3D(R) Version 4.0.1
; Aug 25, 2018 at 9:09:06 PM
; Settings Summary
;   processName,Process1
;   applyToModels,puller_nut
;   profileName,Ender 3
;   profileVersion,2018-08-17 22:18:50
;   baseProfile,Wanhao Duplicator i3 (modified)
;   printMaterial,PLA
;   printQuality,Medium
;   printExtruders,
;   extruderName,Primary Extruder
;   extruderToolheadNumber,0
;   extruderDiameter,0.4
;   extruderAutoWidth,0
;   extruderWidth,0.4
;   extrusionMultiplier,0.97
;   extruderUseRetract,1
;   extruderRetractionDistance,4
;   extruderExtraRestartDistance,0
;   extruderRetractionZLift,0
;   extruderRetractionSpeed,3900
;   extruderUseCoasting,0
;   extruderCoastingDistance,0.1
;   extruderUseWipe,1
;   extruderWipeDistance,4
;   primaryExtruder,0
;   layerHeight,0.2
;   topSolidLayers,3
;   bottomSolidLayers,3
;   perimeterOutlines,3
;   printPerimetersInsideOut,1
;   startPointOption,3
;   startPointOriginX,220
;   startPointOriginY,0
;   sequentialIslands,0
;   spiralVaseMode,0
;   firstLayerHeightPercentage,80
;   firstLayerWidthPercentage,100
;   firstLayerUnderspeed,0.3
;   useRaft,0
;   raftExtruder,0
;   raftTopLayers,3
;   raftBaseLayers,2
;   raftOffset,3
;   raftSeparationDistance,0.14
;   raftTopInfill,100
;   aboveRaftSpeedMultiplier,0.3
;   useSkirt,1
;   skirtExtruder,0
;   skirtLayers,1
;   skirtOutlines,3
;   skirtOffset,3
;   usePrimePillar,0
;   primePillarExtruder,999
;   primePillarWidth,12
;   primePillarLocation,7
;   primePillarSpeedMultiplier,1
;   useOozeShield,0
;   oozeShieldExtruder,999
;   oozeShieldOffset,2
;   oozeShieldOutlines,1
;   oozeShieldSidewallShape,1
;   oozeShieldSidewallAngle,30
;   oozeShieldSpeedMultiplier,1
;   infillExtruder,0
;   internalInfillPattern,Grid
;   externalInfillPattern,Rectilinear
;   infillPercentage,80
;   outlineOverlapPercentage,15
;   infillExtrusionWidthPercentage,100
;   minInfillLength,5
;   infillLayerInterval,1
;   internalInfillAngles,45,-45
;   overlapInternalInfillAngles,1
;   externalInfillAngles,45,-45
;   generateSupport,0
;   supportExtruder,0
;   supportInfillPercentage,30
;   supportExtraInflation,1
;   supportBaseLayers,0
;   denseSupportExtruder,0
;   denseSupportLayers,0
;   denseSupportInfillPercentage,100
;   supportLayerInterval,1
;   supportHorizontalPartOffset,0.3
;   supportUpperSeparationLayers,1
;   supportLowerSeparationLayers,1
;   supportType,0
;   supportGridSpacing,3
;   maxOverhangAngle,45
;   supportAngles,0,45
;   temperatureName,Primary Extruder,Heated Bed
;   temperatureNumber,0,0
;   temperatureSetpointCount,2,1
;   temperatureSetpointLayers,1,2,1
;   temperatureSetpointTemperatures,220,205,60
;   temperatureStabilizeAtStartup,1,1
;   temperatureHeatedBed,0,1
;   temperatureRelayBetweenLayers,0,0
;   temperatureRelayBetweenLoops,0,0
;   fanLayers,1,2
;   fanSpeeds,0,100
;   blipFanToFullPower,0
;   adjustSpeedForCooling,1
;   minSpeedLayerTime,15
;   minCoolingSpeedSlowdown,50
;   increaseFanForCooling,0
;   minFanLayerTime,20
;   maxCoolingFanSpeed,100
;   increaseFanForBridging,0
;   bridgingFanSpeed,100
;   use5D,1
;   relativeEdistances,0
;   allowEaxisZeroing,1
;   independentExtruderAxes,0
;   includeM10123,0
;   stickySupport,1
;   applyToolheadOffsets,0
;   gcodeXoffset,0
;   gcodeYoffset,0
;   gcodeZoffset,0
;   overrideMachineDefinition,1
;   machineTypeOverride,0
;   strokeXoverride,220
;   strokeYoverride,220
;   strokeZoverride,250
;   originOffsetXoverride,0
;   originOffsetYoverride,0
;   originOffsetZoverride,0
;   homeXdirOverride,-1
;   homeYdirOverride,-1
;   homeZdirOverride,-1
;   flipXoverride,1
;   flipYoverride,-1
;   flipZoverride,1
;   toolheadOffsets,0,0|0,0|0,0|0,0|0,0|0,0
;   overrideFirmwareConfiguration,1
;   firmwareTypeOverride,RepRap (Marlin/Repetier/Sprinter)
;   GPXconfigOverride,r2
;   baudRateOverride,115200
;   overridePrinterModels,1
;   printerModelsOverride
;   startingGcode,M75 ; Start Print Timer and Engage Fil Sensor ,M84 E ; Disable E Motor for probe accuracy on direct drive systems ,G28 ; home all axes ,G28 Z ; home Z to get more accurate Z position ,G29; EZABL mesh generation ,G4 S10; wait for heaters to recover , ,M117 Purge extruder ,G92 E0 ; reset extruder ,G1 Z1.0 F3000 ; move z up little ,G1 X0.1 Y20 Z0.3 F5000.0 ; move to start-line position,G1 X0.1 Y100.0 Z0.3 F1000.0 E15 ; draw 1st line ,G1 X0.4 Y100.0 Z0.3 F5000.0 ; move to side a little,G1 X0.4 Y20 Z0.3 F1000.0 E30 ; draw 2nd line ,G92 E0 ; reset extruder ,G1 Z1.0 F3000 ; move z up little , ,M117 Printing..... ,
;   layerChangeGcode,
;   retractionGcode,
;   toolChangeGcode,
;   endingGcode,G1 Y200 X0,M104 S0 ; turn off extruder,M140 S0 ; turn off bed,M106 S0 ; turn off fan,M84 ; disable motors
;   exportFileFormat,gcode
;   celebration,0
;   celebrationSong,Star Wars
;   postProcessing,curl -k -H "X-Api-Key: 1DC09949E057451CA27DA30E29CCEC3B" -F "select=false" -F "print=false" -F "file=@[output_filepath]" "http://192.168.1.93/api/files/local" {STRIP "; postProcessing"}
;   defaultSpeed,3000
;   outlineUnderspeed,0.8
;   solidInfillUnderspeed,0.8
;   supportUnderspeed,0.5
;   rapidXYspeed,6000
;   rapidZspeed,1920
;   minBridgingArea,25
;   bridgingExtraInflation,0
;   bridgingExtrusionMultiplier,1.2
;   bridgingSpeedMultiplier,0.8
;   useFixedBridgingAngle,0
;   fixedBridgingAngle,0
;   applyBridgingToPerimeters,0
;   filamentDiameters,1.74|1.73|1.73|1.73|1.73|1.73
;   filamentPricesPerKg,18|18|18|18|18|18
;   filamentDensities,1.25|1.25|1.25|1.25|1.25|1.25
;   useMinPrintHeight,0
;   minPrintHeight,23
;   useMaxPrintHeight,0
;   maxPrintHeight,23.76
;   useDiaphragm,0
;   diaphragmLayerInterval,20
;   robustSlicing,1
;   mergeAllIntoSolid,0
;   onlyRetractWhenCrossingOutline,0
;   retractBetweenLayers,0
;   useRetractionMinTravel,1
;   retractionMinTravel,3
;   retractWhileWiping,0
;   onlyWipeOutlines,0
;   avoidCrossingOutline,1
;   maxMovementDetourFactor,400
;   toolChangeRetractionDistance,12
;   toolChangeExtraRestartDistance,-0.5
;   toolChangeRetractionSpeed,600
;   externalThinWallType,1
;   internalThinWallType,1
;   thinWallAllowedOverlapPercentage,50
;   singleExtrusionMinLength,1
;   singleExtrusionMinPrintingWidthPercentage,50
;   singleExtrusionMaxPrintingWidthPercentage,200
;   singleExtrusionEndpointExtension,0.2
;   horizontalSizeCompensation,0
G90
M82
M106 S0
M140 S60
M190 S60
M104 S220 T0
M109 S220 T0
M75 ; Start Print Timer and Engage Fil Sensor 
M84 E ; Disable E Motor for probe accuracy on direct drive systems 
G28 ; home all axes 
G28 Z ; home Z to get more accurate Z position 
G29; EZABL mesh generation 
G4 S10; wait for heaters to recover 
 
M117 Purge extruder 
G92 E0 ; reset extruder 
G1 Z1.0 F3000 ; move z up little 
G1 X0.1 Y20 Z0.3 F5000.0 ; move to start-line position
G1 X0.1 Y100.0 Z0.3 F1000.0 E15 ; draw 1st line 
G1 X0.4 Y100.0 Z0.3 F5000.0 ; move to side a little
G1 X0.4 Y20 Z0.3 F1000.0 E30 ; draw 2nd line 
G92 E0 ; reset extruder 
G1 Z1.0 F3000 ; move z up little 
 
M117 Printing..... 
G92 E0
G1 E-4.0000 F3900
G1 Z0.160 F1920
; process Process1
; layer 1, Z = 0.160
T0
; tool H0.200 W0.400
; skirt
G1 X95.641 Y95.900 F6000
G1 E0.0000 F1170
G92 E0
G1 X95.880 Y95.872 E0.0079 F900
G1 X95.909 Y95.647 E0.0153
G1 X96.102 Y95.304 E0.0281
G1 X97.859 Y93.919 E0.1011
G1 X97.872 Y93.909 E0.1017
G1 X97.965 Y93.841 E0.1054
G1 X97.978 Y93.831 E0.1059
G1 X99.233 Y92.969 E0.1556
G1 X99.250 Y92.958 E0.1563
G1 X99.367 Y92.884 E0.1608
G1 X99.384 Y92.874 E0.1615
G1 X101.691 Y91.546 E0.2483
G1 X102.082 Y91.493 E0.2612
G1 X102.410 Y91.579 E0.2723
G1 X102.623 Y91.249 E0.2851
G1 X102.931 Y91.028 E0.2975
G1 X105.831 Y90.290 E0.3951
G1 X105.850 Y90.286 E0.3958
G1 X105.979 Y90.258 E0.4001
G1 X105.997 Y90.254 E0.4007
G1 X107.108 Y90.059 E0.4375
G1 X107.121 Y90.057 E0.4379
G1 X107.219 Y90.043 E0.4411
G1 X107.233 Y90.041 E0.4416
G1 X109.442 Y89.781 E0.5142
G1 X109.823 Y89.887 E0.5271
G1 X110.039 Y90.056 E0.5360
G1 X110.280 Y89.883 E0.5457
G1 X110.642 Y89.790 E0.5579
G1 X112.786 Y90.044 E0.6284
G1 X112.803 Y90.046 E0.6289
G1 X112.924 Y90.065 E0.6329
G1 X112.941 Y90.068 E0.6335
G1 X114.592 Y90.381 E0.6883
G1 X114.612 Y90.385 E0.6890
G1 X114.749 Y90.417 E0.6936
G1 X114.768 Y90.422 E0.6942
G1 X117.197 Y91.089 E0.7764
G1 X117.510 Y91.331 E0.7894
G1 X117.636 Y91.550 E0.7976
G1 X117.864 Y91.487 E0.8053
G1 X118.256 Y91.535 E0.8182
G1 X120.198 Y92.621 E0.8908
G1 X120.209 Y92.628 E0.8912
G1 X120.289 Y92.675 E0.8943
G1 X120.300 Y92.682 E0.8947
G1 X121.224 Y93.265 E0.9303
G1 X121.240 Y93.275 E0.9310
G1 X121.355 Y93.354 E0.9355
G1 X121.371 Y93.366 E0.9362
G1 X123.875 Y95.239 E1.0382
G1 X124.079 Y95.589 E1.0514
G1 X124.115 Y95.868 E1.0606
G1 X124.338 Y95.894 E1.0679
G1 X124.685 Y96.088 E1.0809
G1 X126.079 Y97.854 E1.1543
G1 X126.090 Y97.868 E1.1549
G1 X126.163 Y97.968 E1.1589
G1 X126.173 Y97.982 E1.1595
G1 X127.119 Y99.372 E1.2144
G1 X127.130 Y99.389 E1.2150
G1 X127.204 Y99.508 E1.2196
G1 X127.215 Y99.525 E1.2203
G1 X128.461 Y101.716 E1.3025
G1 X128.511 Y102.108 E1.3154
G1 X128.442 Y102.365 E1.3241
G1 X128.691 Y102.510 E1.3335
G1 X128.933 Y102.827 E1.3465
G1 X129.589 Y105.307 E1.4303
G1 X129.593 Y105.324 E1.4308
G1 X129.619 Y105.437 E1.4346
G1 X129.622 Y105.453 E1.4351
G1 X129.913 Y106.946 E1.4848
G1 X129.916 Y106.963 E1.4853
G1 X129.934 Y107.080 E1.4892
G1 X129.937 Y107.097 E1.4898
G1 X130.229 Y109.432 E1.5666
G1 X130.121 Y109.818 E1.5796
G1 X129.947 Y110.039 E1.5888
G1 X130.111 Y110.267 E1.5980
G1 X130.205 Y110.628 E1.6101
G1 X129.988 Y112.546 E1.6731
G1 X129.986 Y112.560 E1.6736
G1 X129.972 Y112.659 E1.6769
G1 X129.969 Y112.673 E1.6773
G1 X129.711 Y114.180 E1.7272
G1 X129.706 Y114.201 E1.7279
G1 X129.675 Y114.348 E1.7328
G1 X129.670 Y114.368 E1.7335
G1 X128.951 Y117.112 E1.8261
G1 X128.724 Y117.421 E1.8386
G1 X128.441 Y117.597 E1.8494
G1 X128.510 Y117.845 E1.8579
G1 X128.465 Y118.233 E1.8706
G1 X127.580 Y119.845 E1.9306
G1 X127.575 Y119.853 E1.9309
G1 X127.546 Y119.905 E1.9329
G1 X127.541 Y119.912 E1.9332
G1 X127.064 Y120.715 E1.9636
G1 X127.055 Y120.730 E1.9642
G1 X126.991 Y120.830 E1.9681
G1 X126.981 Y120.844 E1.9686
G1 X126.221 Y121.945 E2.0123
G1 X126.213 Y121.956 E2.0128
G1 X126.156 Y122.034 E2.0159
G1 X126.147 Y122.045 E2.0164
G1 X124.708 Y123.902 E2.0930
G1 X124.359 Y124.100 E2.1061
G1 X124.115 Y124.129 E2.1141
G1 X124.079 Y124.414 E2.1235
G1 X123.873 Y124.765 E2.1368
G1 X121.372 Y126.629 E2.2386
G1 X121.358 Y126.639 E2.2391
G1 X121.257 Y126.709 E2.2431
G1 X121.243 Y126.718 E2.2437
G1 X120.435 Y127.237 E2.2750
G1 X120.423 Y127.245 E2.2755
G1 X120.336 Y127.297 E2.2788
G1 X120.324 Y127.304 E2.2793
G1 X118.273 Y128.460 E2.3561
G1 X117.883 Y128.509 E2.3689
G1 X117.640 Y128.443 E2.3771
G1 X117.510 Y128.668 E2.3856
G1 X117.198 Y128.910 E2.3985
G1 X115.004 Y129.514 E2.4728
G1 X114.988 Y129.518 E2.4733
G1 X114.872 Y129.545 E2.4772
G1 X114.856 Y129.549 E2.4777
G1 X113.191 Y129.888 E2.5332
G1 X113.174 Y129.891 E2.5338
G1 X113.053 Y129.911 E2.5378
G1 X113.035 Y129.914 E2.5383
G1 X110.586 Y130.235 E2.6189
G1 X110.198 Y130.129 E2.6321
G1 X109.998 Y129.973 E2.6404
G1 X109.791 Y130.134 E2.6489
G1 X109.402 Y130.239 E2.6620
G1 X106.662 Y129.869 E2.7523
G1 X106.644 Y129.867 E2.7529
G1 X106.516 Y129.845 E2.7571
G1 X106.498 Y129.841 E2.7577
G1 X105.250 Y129.577 E2.7993
G1 X105.236 Y129.574 E2.7998
G1 X105.137 Y129.550 E2.8031
G1 X105.123 Y129.547 E2.8036
G1 X102.807 Y128.915 E2.8820
G1 X102.493 Y128.673 E2.8949
G1 X102.358 Y128.438 E2.9037
G1 X102.065 Y128.515 E2.9136
G1 X101.669 Y128.460 E2.9267
G1 X99.123 Y126.959 E3.0231
G1 X99.110 Y126.950 E3.0236
G1 X99.018 Y126.892 E3.0272
G1 X99.004 Y126.883 E3.0277
G1 X98.329 Y126.425 E3.0543
G1 X98.316 Y126.417 E3.0548
G1 X98.232 Y126.356 E3.0582
G1 X98.220 Y126.347 E3.0587
G1 X96.106 Y124.723 E3.1457
G1 X95.907 Y124.374 E3.1588
G1 X95.875 Y124.113 E3.1674
G1 X95.578 Y124.074 E3.1772
G1 X95.229 Y123.868 E3.1904
G1 X93.329 Y121.313 E3.2943
G1 X93.319 Y121.299 E3.2949
G1 X93.252 Y121.202 E3.2987
G1 X93.243 Y121.189 E3.2992
G1 X92.845 Y120.571 E3.3232
G1 X92.838 Y120.560 E3.3236
G1 X92.789 Y120.479 E3.3267
G1 X92.782 Y120.467 E3.3272
G1 X91.539 Y118.286 E3.4091
G1 X91.489 Y117.894 E3.4220
G1 X91.560 Y117.627 E3.4310
G1 X91.279 Y117.461 E3.4417
G1 X91.038 Y117.139 E3.4548
G1 X90.244 Y113.964 E3.5616
G1 X90.239 Y113.939 E3.5625
G1 X90.204 Y113.763 E3.5683
G1 X90.200 Y113.738 E3.5691
G1 X89.752 Y110.627 E3.6717
G1 X89.855 Y110.235 E3.6849
G1 X90.069 Y109.957 E3.6964
G1 X89.853 Y109.648 E3.7087
G1 X89.766 Y109.278 E3.7211
G1 X90.198 Y106.280 E3.8199
G1 X90.201 Y106.260 E3.8206
G1 X90.226 Y106.124 E3.8251
G1 X90.230 Y106.105 E3.8257
G1 X90.473 Y105.025 E3.8619
G1 X90.477 Y105.012 E3.8623
G1 X90.501 Y104.918 E3.8655
G1 X90.504 Y104.904 E3.8659
G1 X91.111 Y102.774 E3.9382
G1 X91.355 Y102.464 E3.9511
G1 X91.598 Y102.327 E3.9602
G1 X91.524 Y101.996 E3.9712
G1 X91.581 Y101.625 E3.9835
G1 X92.867 Y99.397 E4.0674
G1 X92.876 Y99.382 E4.0680
G1 X92.940 Y99.279 E4.0720
G1 X92.950 Y99.265 E4.0725
G1 X93.654 Y98.219 E4.1137
G1 X93.664 Y98.205 E4.1143
G1 X93.732 Y98.110 E4.1181
G1 X93.742 Y98.097 E4.1186
G1 X95.292 Y96.098 E4.2011
G1 X95.641 Y95.900 E4.2142
G1 X95.880 Y95.872 F3000
G1 X95.909 Y95.647 F3000
G1 X96.102 Y95.304 F3000
G1 X97.859 Y93.919 F3000
G1 X97.872 Y93.909 F3000
G1 X97.965 Y93.841 F3000
G1 X97.978 Y93.831 F3000
G1 X98.599 Y93.404 F3000
G1 X98.199 Y94.165 F6000
G92 E0
G1 X98.207 Y94.159 E0.0003 F900
G1 X99.456 Y93.301 E0.0498
G1 X99.466 Y93.295 E0.0502
G1 X99.577 Y93.225 E0.0544
G1 X99.587 Y93.218 E0.0548
G1 X101.823 Y91.932 E0.1390
G1 X102.057 Y91.900 E0.1467
G1 X102.589 Y92.040 E0.1647
G1 X102.918 Y91.529 E0.1845
G1 X103.103 Y91.397 E0.1919
G1 X105.926 Y90.678 E0.2870
G1 X105.937 Y90.676 E0.2873
G1 X106.059 Y90.650 E0.2914
G1 X106.070 Y90.648 E0.2918
G1 X107.174 Y90.454 E0.3284
G1 X107.182 Y90.453 E0.3286
G1 X107.274 Y90.439 E0.3317
G1 X107.283 Y90.438 E0.3319
G1 X109.410 Y90.187 E0.4019
G1 X109.639 Y90.251 E0.4096
G1 X110.028 Y90.555 E0.4257
G1 X110.452 Y90.252 E0.4427
G1 X110.670 Y90.196 E0.4501
G1 X112.736 Y90.440 E0.5180
G1 X112.746 Y90.442 E0.5183
G1 X112.860 Y90.459 E0.5221
G1 X112.870 Y90.461 E0.5224
G1 X114.514 Y90.773 E0.5770
G1 X114.525 Y90.776 E0.5774
G1 X114.655 Y90.806 E0.5817
G1 X114.666 Y90.809 E0.5821
G1 X117.015 Y91.454 E0.6616
G1 X117.203 Y91.599 E0.6693
G1 X117.444 Y92.018 E0.6851
G1 X117.894 Y91.894 E0.7004
G1 X118.129 Y91.922 E0.7081
G1 X120.000 Y92.969 E0.7781
G1 X120.007 Y92.973 E0.7783
G1 X120.082 Y93.017 E0.7811
G1 X120.089 Y93.022 E0.7814
G1 X121.007 Y93.601 E0.8168
G1 X121.017 Y93.607 E0.8172
G1 X121.125 Y93.682 E0.8215
G1 X121.135 Y93.689 E0.8219
G1 X123.570 Y95.511 E0.9212
G1 X123.693 Y95.721 E0.9291
G1 X123.759 Y96.229 E0.9458
G1 X124.212 Y96.282 E0.9607
G1 X124.421 Y96.399 E0.9685
G1 X125.763 Y98.099 E1.0392
G1 X125.769 Y98.108 E1.0396
G1 X125.838 Y98.202 E1.0434
G1 X125.844 Y98.210 E1.0437
G1 X126.786 Y99.594 E1.0983
G1 X126.793 Y99.604 E1.0987
G1 X126.863 Y99.716 E1.1030
G1 X126.869 Y99.727 E1.1034
G1 X128.075 Y101.845 E1.1830
G1 X128.105 Y102.080 E1.1907
G1 X127.976 Y102.557 E1.2068
G1 X128.422 Y102.816 E1.2237
G1 X128.566 Y103.006 E1.2314
G1 X129.201 Y105.406 E1.3125
G1 X129.203 Y105.416 E1.3128
G1 X129.228 Y105.523 E1.3164
G1 X129.230 Y105.532 E1.3167
G1 X129.519 Y107.019 E1.3661
G1 X129.521 Y107.029 E1.3664
G1 X129.539 Y107.140 E1.3701
G1 X129.540 Y107.150 E1.3704
G1 X129.822 Y109.402 E1.4445
G1 X129.757 Y109.634 E1.4524
G1 X129.447 Y110.029 E1.4687
G1 X129.743 Y110.440 E1.4853
G1 X129.800 Y110.657 E1.4926
G1 X129.590 Y112.498 E1.5531
G1 X129.589 Y112.507 E1.5533
G1 X129.576 Y112.600 E1.5564
G1 X129.575 Y112.608 E1.5567
G1 X129.317 Y114.108 E1.6063
G1 X129.315 Y114.120 E1.6068
G1 X129.285 Y114.259 E1.6114
G1 X129.282 Y114.271 E1.6118
G1 X128.584 Y116.937 E1.7017
G1 X128.447 Y117.122 E1.7092
G1 X127.976 Y117.415 E1.7274
G1 X128.104 Y117.876 E1.7430
G1 X128.077 Y118.109 E1.7506
G1 X127.230 Y119.651 E1.8080
G1 X127.227 Y119.656 E1.8082
G1 X127.199 Y119.705 E1.8101
G1 X127.197 Y119.709 E1.8102
G1 X126.722 Y120.508 E1.8405
G1 X126.716 Y120.517 E1.8409
G1 X126.656 Y120.611 E1.8445
G1 X126.650 Y120.620 E1.8449
