; G-Code generated by Simplify3D(R) Version 4.0.1
; Aug 18, 2018 at 9:15:20 PM
; Settings Summary
;   processName,Process1
;   applyToModels,xyzCalibration_cube
;   profileName,Ender 3 (modified)
;   profileVersion,2018-07-11 20:09:44
;   baseProfile,Wanhao Duplicator i3 (modified)
;   printMaterial,PLA
;   printQuality,High
;   printExtruders,
;   extruderName,Primary Extruder
;   extruderToolheadNumber,0
;   extruderDiameter,0.4
;   extruderAutoWidth,0
;   extruderWidth,0.4
;   extrusionMultiplier,0.97
;   extruderUseRetract,1
;   extruderRetractionDistance,4
;   extruderExtraRestartDistance,0
;   extruderRetractionZLift,0
;   extruderRetractionSpeed,3900
;   extruderUseCoasting,0
;   extruderCoastingDistance,0.1
;   extruderUseWipe,1
;   extruderWipeDistance,4
;   primaryExtruder,0
;   layerHeight,0.2
;   topSolidLayers,4
;   bottomSolidLayers,4
;   perimeterOutlines,3
;   printPerimetersInsideOut,1
;   startPointOption,3
;   startPointOriginX,220
;   startPointOriginY,0
;   sequentialIslands,0
;   spiralVaseMode,0
;   firstLayerHeightPercentage,80
;   firstLayerWidthPercentage,100
;   firstLayerUnderspeed,0.3
;   useRaft,1
;   raftExtruder,0
;   raftTopLayers,3
;   raftBaseLayers,2
;   raftOffset,3
;   raftSeparationDistance,0.14
;   raftTopInfill,100
;   aboveRaftSpeedMultiplier,0.3
;   useSkirt,1
;   skirtExtruder,0
;   skirtLayers,2
;   skirtOutlines,3
;   skirtOffset,3
;   usePrimePillar,0
;   primePillarExtruder,999
;   primePillarWidth,12
;   primePillarLocation,7
;   primePillarSpeedMultiplier,1
;   useOozeShield,0
;   oozeShieldExtruder,999
;   oozeShieldOffset,2
;   oozeShieldOutlines,1
;   oozeShieldSidewallShape,1
;   oozeShieldSidewallAngle,30
;   oozeShieldSpeedMultiplier,1
;   infillExtruder,0
;   internalInfillPattern,Grid
;   externalInfillPattern,Rectilinear
;   infillPercentage,30
;   outlineOverlapPercentage,15
;   infillExtrusionWidthPercentage,100
;   minInfillLength,5
;   infillLayerInterval,1
;   internalInfillAngles,45,-45
;   overlapInternalInfillAngles,1
;   externalInfillAngles,45,-45
;   generateSupport,1
;   supportExtruder,0
;   supportInfillPercentage,40
;   supportExtraInflation,1
;   supportBaseLayers,0
;   denseSupportExtruder,0
;   denseSupportLayers,0
;   denseSupportInfillPercentage,100
;   supportLayerInterval,1
;   supportHorizontalPartOffset,0.3
;   supportUpperSeparationLayers,1
;   supportLowerSeparationLayers,1
;   supportType,0
;   supportGridSpacing,99
;   maxOverhangAngle,45
;   supportAngles,0,45
;   temperatureName,Primary Extruder,Heated Bed
;   temperatureNumber,0,0
;   temperatureSetpointCount,2,1
;   temperatureSetpointLayers,1,2,1
;   temperatureSetpointTemperatures,220,205,60
;   temperatureStabilizeAtStartup,1,1
;   temperatureHeatedBed,0,1
;   temperatureRelayBetweenLayers,0,0
;   temperatureRelayBetweenLoops,0,0
;   fanLayers,1,2
;   fanSpeeds,0,100
;   blipFanToFullPower,0
;   adjustSpeedForCooling,1
;   minSpeedLayerTime,15
;   minCoolingSpeedSlowdown,50
;   increaseFanForCooling,0
;   minFanLayerTime,20
;   maxCoolingFanSpeed,100
;   increaseFanForBridging,0
;   bridgingFanSpeed,100
;   use5D,1
;   relativeEdistances,0
;   allowEaxisZeroing,1
;   independentExtruderAxes,0
;   includeM10123,0
;   stickySupport,1
;   applyToolheadOffsets,0
;   gcodeXoffset,0
;   gcodeYoffset,0
;   gcodeZoffset,0
;   overrideMachineDefinition,1
;   machineTypeOverride,0
;   strokeXoverride,220
;   strokeYoverride,220
;   strokeZoverride,250
;   originOffsetXoverride,0
;   originOffsetYoverride,0
;   originOffsetZoverride,0
;   homeXdirOverride,-1
;   homeYdirOverride,-1
;   homeZdirOverride,-1
;   flipXoverride,1
;   flipYoverride,-1
;   flipZoverride,1
;   toolheadOffsets,0,0|0,0|0,0|0,0|0,0|0,0
;   overrideFirmwareConfiguration,1
;   firmwareTypeOverride,RepRap (Marlin/Repetier/Sprinter)
;   GPXconfigOverride,r2
;   baudRateOverride,115200
;   overridePrinterModels,1
;   printerModelsOverride
;   startingGcode,G28 ; home all axes,M205 X10,M204 P500 T1000,G1 Z0.2 F3000 ; get ready to prime,G92 E0 ; reset extrusion distance,G1 Y8,G1 X100 E10 F600 ; prime nozzle,G1 X145 F5000 ; quick wipe,G92 E0 ; reset extrusion distance,
;   layerChangeGcode,
;   retractionGcode,
;   toolChangeGcode,
;   endingGcode,G1 Y200 X0,M104 S0 ; turn off extruder,M140 S0 ; turn off bed,M106 S0 ; turn off fan,M84 ; disable motors
;   exportFileFormat,gcode
;   celebration,0
;   celebrationSong,Random Song
;   postProcessing,
;   defaultSpeed,3000
;   outlineUnderspeed,0.8
;   solidInfillUnderspeed,0.8
;   supportUnderspeed,0.5
;   rapidXYspeed,6000
;   rapidZspeed,1920
;   minBridgingArea,25
;   bridgingExtraInflation,0
;   bridgingExtrusionMultiplier,1.2
;   bridgingSpeedMultiplier,0.8
;   useFixedBridgingAngle,0
;   fixedBridgingAngle,0
;   applyBridgingToPerimeters,0
;   filamentDiameters,1.74|1.73|1.73|1.73|1.73|1.73
;   filamentPricesPerKg,18|18|18|18|18|18
;   filamentDensities,1.25|1.25|1.25|1.25|1.25|1.25
;   useMinPrintHeight,0
;   minPrintHeight,23
;   useMaxPrintHeight,0
;   maxPrintHeight,23.76
;   useDiaphragm,0
;   diaphragmLayerInterval,20
;   robustSlicing,1
;   mergeAllIntoSolid,0
;   onlyRetractWhenCrossingOutline,0
;   retractBetweenLayers,0
;   useRetractionMinTravel,1
;   retractionMinTravel,3
;   retractWhileWiping,0
;   onlyWipeOutlines,0
;   avoidCrossingOutline,1
;   maxMovementDetourFactor,400
;   toolChangeRetractionDistance,12
;   toolChangeExtraRestartDistance,-0.5
;   toolChangeRetractionSpeed,600
;   externalThinWallType,1
;   internalThinWallType,1
;   thinWallAllowedOverlapPercentage,50
;   singleExtrusionMinLength,1
;   singleExtrusionMinPrintingWidthPercentage,50
;   singleExtrusionMaxPrintingWidthPercentage,200
;   singleExtrusionEndpointExtension,0.2
;   horizontalSizeCompensation,0
G90
M82
M106 S0
M140 S60
M190 S60
M104 S220 T0
M109 S220 T0
G28 ; home all axes
M205 X10
M204 P500 T1000
G1 Z0.2 F3000 ; get ready to prime
G92 E0 ; reset extrusion distance
G1 Y8
G1 X100 E10 F600 ; prime nozzle
G1 X145 F5000 ; quick wipe
G92 E0 ; reset extrusion distance
G92 E0
G1 E-4.0000 F3900
G1 Z0.400 F1920
; process Process1
; layer 1, Z = 0.400
T0
; tool H0.500 W0.400
; skirt
G1 X83.152 Y86.948 F6000
G1 E0.0000 F1170
G92 E0
G1 X86.948 Y83.152 E0.4380 F900
G1 X87.316 Y83.000 E0.4704
G1 X112.684 Y83.000 E2.5401
G1 X113.052 Y83.152 E2.5726
G1 X116.848 Y86.948 E3.0106
G1 X117.000 Y87.316 E3.0430
G1 X117.000 Y112.684 E5.1127
G1 X116.848 Y113.052 E5.1452
G1 X113.052 Y116.848 E5.5832
G1 X112.684 Y117.000 E5.6156
G1 X87.316 Y117.000 E7.6853
G1 X86.948 Y116.848 E7.7178
G1 X83.152 Y113.052 E8.1558
G1 X83.000 Y112.684 E8.1882
G1 X83.000 Y87.316 E10.2579
G1 X83.152 Y86.948 E10.2904
G1 X85.981 Y84.120 F3000
G1 X87.175 Y83.491 F6000
G92 E0
G1 X87.395 Y83.400 E0.0195 F900
G1 X112.605 Y83.400 E2.0762
G1 X112.825 Y83.491 E2.0957
G1 X116.509 Y87.175 E2.5207
G1 X116.600 Y87.395 E2.5401
G1 X116.600 Y112.605 E4.5968
G1 X116.509 Y112.825 E4.6163
G1 X112.825 Y116.509 E5.0413
G1 X112.605 Y116.600 E5.0608
G1 X87.395 Y116.600 E7.1175
G1 X87.175 Y116.509 E7.1370
G1 X83.491 Y112.825 E7.5620
G1 X83.400 Y112.605 E7.5815
G1 X83.400 Y87.395 E9.6382
G1 X83.491 Y87.175 E9.6576
G1 X87.175 Y83.491 E10.0826
G92 E0
G1 E-4.0000 F3900
G1 X87.395 Y83.400 F3000
G1 X91.157 Y83.400 F3000
G1 X87.475 Y83.800 F6000
G1 E0.0000 F3900
G92 E0
G1 X112.525 Y83.800 E2.0437 F900
G1 X112.599 Y83.830 E2.0502
G1 X116.170 Y87.401 E2.4622
G1 X116.200 Y87.475 E2.4687
G1 X116.200 Y112.525 E4.5125
G1 X116.170 Y112.599 E4.5189
G1 X112.599 Y116.170 E4.9310
G1 X112.525 Y116.200 E4.9375
G1 X87.475 Y116.200 E6.9812
G1 X87.401 Y116.170 E6.9877
G1 X83.830 Y112.599 E7.3997
G1 X83.800 Y112.525 E7.4062
G1 X83.800 Y87.475 E9.4499
G1 X83.830 Y87.401 E9.4564
G1 X87.401 Y83.830 E9.8684
G1 X87.475 Y83.800 E9.8749
G92 E0
G1 E-4.0000 F3900
G1 X91.475 Y83.800 F3000
; tool H0.500 W0.800
; raft
G1 X88.923 Y87.400 F6000
G1 E0.0000 F3900
G92 E0
G1 X111.077 Y87.400 E3.6149 F225
G1 X112.600 Y88.923 E3.9663
G1 X112.600 Y111.077 E7.5812
G1 X111.077 Y112.600 E7.9327
G1 X88.923 Y112.600 E11.5476
G1 X87.400 Y111.077 E11.8990
G1 X87.400 Y88.923 E15.5139
G1 X88.923 Y87.400 E15.8653
G92 E0
G1 E-4.0000 F3900
G1 X92.923 Y87.400 F3000
G1 X88.883 Y88.571 F6000
G1 E0.0000 F3900
G92 E0
G1 X111.117 Y88.571 E3.6280 F225
G1 X111.800 Y89.254 E3.7856
G1 X111.800 Y90.857 E4.0471
G1 X88.200 Y90.857 E7.8979
G1 X88.200 Y93.143 E8.2709
G1 X111.800 Y93.143 E12.1217
G1 X111.800 Y95.429 E12.4947
G1 X88.200 Y95.429 E16.3455
G1 X88.200 Y97.714 E16.7185
G1 X111.800 Y97.714 E20.5693
G1 X111.800 Y100.000 E20.9423
G1 X88.200 Y100.000 E24.7931
G1 X88.200 Y102.286 E25.1661
G1 X111.800 Y102.286 E29.0169
G1 X111.800 Y104.571 E29.3899
G1 X88.200 Y104.571 E33.2407
G1 X88.200 Y106.857 E33.6137
G1 X111.800 Y106.857 E37.4645
G1 X111.800 Y109.143 E37.8375
G1 X88.200 Y109.143 E41.6883
G1 X88.200 Y110.746 E41.9498
G1 X88.883 Y111.429 E42.1075
G1 X111.117 Y111.429 E45.7354
G92 E0
G1 E-4.0000 F3900
G1 X107.117 Y111.429 F3000
; layer 2, Z = 0.900
M104 S205 T0
M106 S255
; tool H0.500 W0.400
; skirt
G1 X112.684 Y117.000 F6000
G1 Z0.900 F1920
G1 E0.0000 F3900
G92 E0
G1 X87.316 Y117.000 E2.0697 F3000
G1 X86.948 Y116.848 E2.1022
G1 X83.152 Y113.052 E2.5401
G1 X83.000 Y112.684 E2.5726
G1 X83.000 Y87.316 E4.6423
G1 X83.152 Y86.948 E4.6747
G1 X86.948 Y83.152 E5.1127
G1 X87.316 Y83.000 E5.1452
G1 X112.684 Y83.000 E7.2149
G1 X113.052 Y83.152 E7.2473
G1 X116.848 Y86.948 E7.6853
G1 X117.000 Y87.316 E7.7178
G1 X117.000 Y112.684 E9.7875
G1 X116.848 Y113.052 E9.8199
G1 X113.052 Y116.848 E10.2579
G1 X112.684 Y117.000 E10.2904
G92 E0
G1 E-4.0000 F3900
G1 X108.684 Y117.000 F3000
G1 X112.605 Y116.600 F6000
G1 E0.0000 F3900
G92 E0
G1 X87.395 Y116.600 E2.0567 F3000
G1 X87.175 Y116.509 E2.0762
G1 X83.491 Y112.825 E2.5012
G1 X83.400 Y112.605 E2.5207
G1 X83.400 Y87.395 E4.5774
G1 X83.491 Y87.175 E4.5968
G1 X87.175 Y83.491 E5.0218
G1 X87.395 Y83.400 E5.0413
G1 X112.605 Y83.400 E7.0980
G1 X112.825 Y83.491 E7.1175
G1 X116.509 Y87.175 E7.5425
G1 X116.600 Y87.395 E7.5620
G1 X116.600 Y112.605 E9.6187
G1 X116.509 Y112.825 E9.6382
G1 X112.825 Y116.509 E10.0632
G1 X112.605 Y116.600 E10.0826
G92 E0
G1 E-4.0000 F3900
G1 X108.605 Y116.600 F3000
G1 X112.525 Y116.200 F6000
G1 E0.0000 F3900
G92 E0
G1 X87.475 Y116.200 E2.0437 F3000
G1 X87.401 Y116.170 E2.0502
G1 X83.830 Y112.599 E2.4622
G1 X83.800 Y112.525 E2.4687
G1 X83.800 Y87.475 E4.5125
G1 X83.830 Y87.401 E4.5189
G1 X87.401 Y83.830 E4.9310
G1 X87.475 Y83.800 E4.9375
G1 X112.525 Y83.800 E6.9812
G1 X112.599 Y83.830 E6.9877
G1 X116.170 Y87.401 E7.3997
G1 X116.200 Y87.475 E7.4062
G1 X116.200 Y112.525 E9.4499
G1 X116.170 Y112.599 E9.4564
G1 X112.599 Y116.170 E9.8684
G1 X112.525 Y116.200 E9.8749
G92 E0
G1 E-4.0000 F3900
G1 X108.525 Y116.200 F3000
; tool H0.500 W0.800
; raft
G1 X111.077 Y112.600 F6000
G1 E0.0000 F3900
G92 E0
G1 X88.923 Y112.600 E3.6149 F750
G1 X87.400 Y111.077 E3.9663
G1 X87.400 Y88.923 E7.5812
G1 X88.923 Y87.400 E7.9327
G1 X111.077 Y87.400 E11.5476
G1 X112.600 Y88.923 E11.8990
G1 X112.600 Y111.077 E15.5139
G1 X111.077 Y112.600 E15.8653
G92 E0
G1 E-4.0000 F3900
G1 X107.077 Y112.600 F3000
G1 X111.117 Y111.429 F6000
G1 E0.0000 F3900
G92 E0
G1 X88.883 Y111.429 E3.6279 F750
G1 X88.200 Y110.746 E3.7856
G1 X88.200 Y109.143 E4.0471
G1 X111.800 Y109.143 E7.8979
G1 X111.800 Y106.857 E8.2709
G1 X88.200 Y106.857 E12.1217
G1 X88.200 Y104.571 E12.4947
G1 X111.800 Y104.571 E16.3455
G1 X111.800 Y102.286 E16.7185
G1 X88.200 Y102.286 E20.5693
G1 X88.200 Y100.000 E20.9423
G1 X111.800 Y100.000 E24.7931
G1 X111.800 Y97.714 E25.1661
G1 X88.200 Y97.714 E29.0169
G1 X88.200 Y95.429 E29.3899
G1 X111.800 Y95.429 E33.2407
G1 X111.800 Y93.143 E33.6137
G1 X88.200 Y93.143 E37.4645
G1 X88.200 Y90.857 E37.8375
G1 X111.800 Y90.857 E41.6883
G1 X111.800 Y89.254 E41.9498
G1 X111.117 Y88.571 E42.1074
G1 X88.883 Y88.571 E45.7354
G92 E0
G1 E-4.0000 F3900
G1 X92.883 Y88.571 F3000
; layer 3, Z = 1.122
; tool H0.222 W0.400
G1 X87.200 Y89.041 F6000
G1 Z1.122 F1920
G1 E0.0000 F3900
G92 E0
G1 X89.041 Y87.200 E0.0944 F2250
G1 X89.607 Y87.200 E0.1149
G1 X87.200 Y89.607 E0.2384
G1 X87.200 Y90.173 E0.2589
G1 X90.173 Y87.200 E0.4113
G1 X90.738 Y87.200 E0.4318
G1 X87.200 Y90.738 E0.6133
G1 X87.200 Y91.304 E0.6338
G1 X91.304 Y87.200 E0.8442
G1 X91.870 Y87.200 E0.8647
G1 X87.200 Y91.870 E1.1042
G1 X87.200 Y92.435 E1.1247
G1 X92.435 Y87.200 E1.3932
G1 X93.001 Y87.200 E1.4137
G1 X87.200 Y93.001 E1.7112
G1 X87.200 Y93.567 E1.7317
G1 X93.567 Y87.200 E2.0582
G1 X94.132 Y87.200 E2.0787
G1 X87.200 Y94.132 E2.4342
G1 X87.200 Y94.698 E2.4547
G1 X94.698 Y87.200 E2.8392
G1 X95.264 Y87.200 E2.8597
G1 X87.200 Y95.264 E3.2732
G1 X87.200 Y95.829 E3.2937
G1 X95.829 Y87.200 E3.7362
G1 X96.395 Y87.200 E3.7567
G1 X87.200 Y96.395 E4.2283
G1 X87.200 Y96.961 E4.2488
G1 X96.961 Y87.200 E4.7493
G1 X97.527 Y87.200 E4.7698
G1 X87.200 Y97.527 E5.2994
G1 X87.200 Y98.092 E5.3199
G1 X98.092 Y87.200 E5.8784
G1 X98.658 Y87.200 E5.8989
G1 X87.200 Y98.658 E6.4865
G1 X87.200 Y99.224 E6.5070
G1 X99.224 Y87.200 E7.1236
G1 X99.789 Y87.200 E7.1441
G1 X87.200 Y99.789 E7.7897
G1 X87.200 Y100.355 E7.8102
G1 X100.355 Y87.200 E8.4847
G1 X100.921 Y87.200 E8.5053
G1 X87.200 Y100.921 E9.2088
G1 X87.200 Y101.486 E9.2294
G1 X101.486 Y87.200 E9.9620
G1 X102.052 Y87.200 E9.9825
G1 X87.200 Y102.052 E10.7441
G1 X87.200 Y102.618 E10.7646
G1 X102.618 Y87.200 E11.5552
G1 X103.183 Y87.200 E11.5757
G1 X87.200 Y103.183 E12.3953
G1 X87.200 Y103.749 E12.4159
G1 X103.749 Y87.200 E13.2645
G1 X104.315 Y87.200 E13.2850
G1 X87.200 Y104.315 E14.1626
G1 X87.200 Y104.880 E14.1831
G1 X104.880 Y87.200 E15.0898
G1 X105.446 Y87.200 E15.1103
G1 X87.200 Y105.446 E16.0460
G1 X87.200 Y106.012 E16.0665
G1 X106.012 Y87.200 E17.0311
G1 X106.577 Y87.200 E17.0517
G1 X87.200 Y106.577 E18.0453
G1 X87.200 Y107.143 E18.0658
G1 X107.143 Y87.200 E19.0885
G1 X107.709 Y87.200 E19.1090
G1 X87.200 Y107.709 E20.1607
G1 X87.200 Y108.275 E20.1812
G1 X108.275 Y87.200 E21.2619
G1 X108.840 Y87.200 E21.2824
G1 X87.200 Y108.840 E22.3921
G1 X87.200 Y109.406 E22.4127
G1 X109.406 Y87.200 E23.5514
G1 X109.972 Y87.200 E23.5719
G1 X87.200 Y109.972 E24.7396
G1 X87.200 Y110.537 E24.7601
G1 X110.537 Y87.200 E25.9568
G1 X111.103 Y87.200 E25.9774
G1 X87.200 Y111.103 E27.2031
G1 X87.200 Y111.160 E27.2052
G1 X87.454 Y111.414 E27.2182
G1 X111.414 Y87.454 E28.4469
G1 X111.697 Y87.737 E28.4614
G1 X87.737 Y111.697 E29.6900
G1 X88.020 Y111.980 E29.7045
G1 X111.980 Y88.020 E30.9332
G1 X112.263 Y88.303 E30.9477
G1 X88.303 Y112.263 E32.1763
G1 X88.586 Y112.546 E32.1908
G1 X112.546 Y88.586 E33.4195
G1 X112.800 Y88.840 E33.4325
G1 X112.800 Y88.897 E33.4346
G1 X88.897 Y112.800 E34.6603
G1 X89.463 Y112.800 E34.6808
G1 X112.800 Y89.463 E35.8776
G1 X112.800 Y90.028 E35.8981
G1 X90.028 Y112.800 E37.0658
G1 X90.594 Y112.800 E37.0863
G1 X112.800 Y90.594 E38.2250
G1 X112.800 Y91.160 E38.2455
G1 X91.160 Y112.800 E39.3552
G1 X91.726 Y112.800 E39.3757
G1 X112.800 Y91.726 E40.4564
G1 X112.800 Y92.291 E40.4770
G1 X92.291 Y112.800 E41.5286
G1 X92.857 Y112.800 E41.5491
G1 X112.800 Y92.857 E42.5718
G1 X112.800 Y93.423 E42.5923
G1 X93.423 Y112.800 E43.5860
G1 X93.988 Y112.800 E43.6065
G1 X112.800 Y93.988 E44.5712
G1 X112.800 Y94.554 E44.5917
G1 X94.554 Y112.800 E45.5273
G1 X95.120 Y112.800 E45.5479
G1 X112.800 Y95.120 E46.4545
G1 X112.800 Y95.685 E46.4750
G1 X95.685 Y112.800 E47.3527
G1 X96.251 Y112.800 E47.3732
G1 X112.800 Y96.251 E48.2218
G1 X112.800 Y96.817 E48.2423
G1 X96.817 Y112.800 E49.0619
G1 X97.382 Y112.800 E49.0824
G1 X112.800 Y97.382 E49.8731
G1 X112.800 Y97.948 E49.8936
G1 X97.948 Y112.800 E50.6552
G1 X98.514 Y112.800 E50.6757
G1 X112.800 Y98.514 E51.4083
G1 X112.800 Y99.079 E51.4288
G1 X99.079 Y112.800 E52.1324
G1 X99.645 Y112.800 E52.1529
G1 X112.800 Y99.645 E52.8275
G1 X112.800 Y100.211 E52.8480
G1 X100.211 Y112.800 E53.4935
G1 X100.776 Y112.800 E53.5141
G1 X112.800 Y100.776 E54.1306
G1 X112.800 Y101.342 E54.1511
G1 X101.342 Y112.800 E54.7387
G1 X101.908 Y112.800 E54.7592
G1 X112.800 Y101.908 E55.3177
G1 X112.800 Y102.474 E55.3383
G1 X102.474 Y112.800 E55.8678
G1 X103.039 Y112.800 E55.8883
G1 X112.800 Y103.039 E56.3888
